; Created by Sandify
; 
;   https://sandify.org
; 
;   Sandify Version: 0.2.1
; 
;   Machine Type: Polar
;     Max Radius: 250
;     Start Point: none
;     End Point: none
;   Content Type: shape
;     Starting Size: 7
;     Offset: X:  Y: 0
;     Selected Shape: Circle
;       Starting size: 7
;       Number of lobes: 2
;     Number of Loops: 41
;     Transform Method: smear
;     Spin: true
;       Spin Value: 36.7
;       Spin Switchbacks: 1
;     Grow: true
;       Grow Value: 100
;     Track: false
;   Path Reversed: true
; 
; filename: 'sandify'

; BEGIN PRE
; END PRE
G01 X499.039 Y228.104
G01 X497.868 Y217.423
G01 X496.283 Y207.051
G01 X494.332 Y197.069
G01 X492.073 Y187.545
G01 X489.567 Y178.531
G01 X486.876 Y170.065
G01 X484.063 Y162.167
G01 X481.183 Y154.846
G01 X478.291 Y148.101
G01 X475.431 Y141.921
G01 X472.643 Y136.289
G01 X469.960 Y131.183
G01 X467.411 Y126.579
G01 X465.015 Y122.451
G01 X465.015 Y122.451
G01 X464.080 Y120.889
G01 X458.493 Y121.421
G01 X448.059 Y123.611
G01 X437.036 Y127.028
G01 X425.435 Y131.631
G01 X413.271 Y137.369
G01 X400.562 Y144.176
G01 X387.329 Y151.976
G01 X373.598 Y160.684
G01 X359.397 Y170.205
G01 X344.758 Y180.432
G01 X329.717 Y191.255
G01 X314.314 Y202.556
G01 X298.593 Y214.209
G01 X282.599 Y226.088
G01 X266.384 Y238.063
G01 X250.000 Y250.000
G01 X233.504 Y261.768
G01 X216.954 Y273.237
G01 X200.411 Y284.277
G01 X183.937 Y294.765
G01 X167.599 Y304.581
G01 X151.460 Y313.613
G01 X135.586 Y321.754
G01 X120.044 Y328.907
G01 X104.899 Y334.986
G01 X90.217 Y339.914
G01 X76.060 Y343.624
G01 X62.491 Y346.064
G01 X49.568 Y347.192
G01 X37.348 Y346.980
G01 X25.883 Y345.413
G01 X18.048 Y343.265
G01 X17.399 Y341.633
G01 X14.831 Y334.826
G01 X12.310 Y327.482
G01 X9.877 Y319.578
G01 X7.581 Y311.098
G01 X5.474 Y302.028
G01 X3.616 Y292.364
G01 X2.071 Y282.112
G01 X0.908 Y271.288
G01 X0.197 Y259.925
G01 X0.007 Y248.069
G01 X0.008 Y248.050
G01 X0.404 Y235.786
G01 X0.428 Y235.385
G01 X1.445 Y223.157
G01 X1.524 Y222.437
G01 X3.176 Y210.278
G01 X3.333 Y209.315
G01 X5.626 Y197.261
G01 X5.871 Y196.139
G01 X8.808 Y184.225
G01 X9.136 Y183.033
G01 X12.712 Y171.295
G01 X13.104 Y170.122
G01 X17.309 Y158.595
G01 X17.731 Y157.527
G01 X22.549 Y146.241
G01 X22.955 Y145.354
G01 X28.364 Y134.340
G01 X28.699 Y133.698
G01 X34.673 Y122.980
G01 X34.877 Y122.634
G01 X41.386 Y112.232
G01 X41.396 Y112.216
G01 X48.408 Y102.146
G01 X55.645 Y92.754
G01 X63.006 Y84.068
G01 X70.407 Y76.085
G01 X77.773 Y68.788
G01 X85.038 Y62.150
G01 X92.148 Y56.137
G01 X99.057 Y50.710
G01 X105.731 Y45.827
G01 X112.141 Y41.446
G01 X118.268 Y37.522
G01 X118.268 Y37.522
G01 X118.787 Y37.202
G01 X128.112 Y40.905
G01 X138.218 Y46.541
G01 X148.114 Y53.700
G01 X157.767 Y62.336
G01 X167.149 Y72.393
G01 X176.238 Y83.801
G01 X185.017 Y96.479
G01 X193.474 Y110.337
G01 X201.605 Y125.273
G01 X209.408 Y141.177
G01 X216.890 Y157.934
G01 X224.060 Y175.418
G01 X230.935 Y193.502
G01 X237.533 Y212.051
G01 X243.879 Y230.930
G01 X250.000 Y250.000
G01 X255.928 Y269.123
G01 X261.696 Y288.162
G01 X267.341 Y306.981
G01 X272.899 Y325.446
G01 X278.409 Y343.430
G01 X283.910 Y360.811
G01 X289.440 Y377.471
G01 X295.037 Y393.302
G01 X300.737 Y408.203
G01 X306.572 Y422.084
G01 X312.574 Y434.862
G01 X318.771 Y446.467
G01 X325.185 Y456.839
G01 X331.836 Y465.928
G01 X338.738 Y473.699
G01 X345.900 Y480.124
G01 X346.583 Y480.590
G01 X350.555 Y478.886
G01 X355.351 Y476.718
G01 X360.553 Y474.228
G01 X366.154 Y471.378
G01 X372.140 Y468.132
G01 X378.491 Y464.453
G01 X385.174 Y460.304
G01 X392.150 Y455.653
G01 X399.367 Y450.473
G01 X406.764 Y444.744
G01 X414.267 Y438.458
G01 X421.796 Y431.621
G01 X429.266 Y424.252
G01 X436.588 Y416.388
G01 X443.674 Y408.083
G01 X450.444 Y399.406
G01 X456.825 Y390.440
G01 X462.759 Y381.276
G01 X468.204 Y372.013
G01 X473.131 Y362.749
G01 X477.533 Y353.580
G01 X481.413 Y344.594
G01 X484.790 Y335.869
G01 X487.693 Y327.473
G01 X490.157 Y319.459
G01 X492.224 Y311.869
G01 X493.935 Y304.732
G01 X495.335 Y298.068
G01 X496.466 Y291.886
G01 X497.367 Y286.190
G01 X498.074 Y280.974
G01 X498.074 Y280.974
G01 X498.467 Y277.641
G01 X496.424 Y276.001
G01 X488.179 Y270.995
G01 X478.734 Y266.623
G01 X468.113 Y262.866
G01 X456.347 Y259.702
G01 X443.480 Y257.096
G01 X429.562 Y255.010
G01 X414.655 Y253.395
G01 X398.828 Y252.200
G01 X382.161 Y251.367
G01 X364.737 Y250.831
G01 X346.653 Y250.528
G01 X328.007 Y250.387
G01 X308.905 Y250.336
G01 X289.459 Y250.303
G01 X269.785 Y250.215
G01 X250.000 Y250.000
G01 X230.226 Y249.587
G01 X210.585 Y248.908
G01 X191.199 Y247.898
G01 X172.191 Y246.497
G01 X153.679 Y244.648
G01 X135.782 Y242.302
G01 X118.612 Y239.414
G01 X102.278 Y235.946
G01 X86.882 Y231.870
G01 X72.519 Y227.162
G01 X59.277 Y221.808
G01 X47.237 Y215.803
G01 X36.467 Y209.148
G01 X27.029 Y201.854
G01 X18.973 Y193.942
G01 X12.337 Y185.437
G01 X9.740 Y180.899
G01 X10.753 Y177.468
G01 X13.121 Y170.073
G01 X15.894 Y162.283
G01 X19.121 Y154.111
G01 X22.852 Y145.580
G01 X27.137 Y136.721
G01 X32.026 Y127.578
G01 X37.562 Y118.205
G01 X43.783 Y108.669
G01 X50.716 Y99.050
G01 X50.727 Y99.035
G01 X58.375 Y89.439
G01 X58.633 Y89.131
G01 X66.757 Y79.935
G01 X67.250 Y79.405
G01 X75.841 Y70.643
G01 X76.543 Y69.965
G01 X85.585 Y61.671
G01 X86.452 Y60.918
G01 X95.927 Y53.121
G01 X96.903 Y52.361
G01 X106.785 Y45.087
G01 X107.800 Y44.381
G01 X118.060 Y37.651
G01 X119.037 Y37.048
G01 X129.644 Y30.878
G01 X130.500 Y30.410
G01 X141.419 Y24.811
G01 X142.071 Y24.497
G01 X153.266 Y19.473
G01 X153.637 Y19.318
G01 X165.072 Y14.868
G01 X165.090 Y14.861
G01 X176.730 Y10.978
G01 X188.145 Y7.773
G01 X199.238 Y5.208
G01 X209.943 Y3.230
G01 X220.209 Y1.781
G01 X230.001 Y0.801
G01 X239.295 Y0.229
G01 X248.078 Y0.007
G01 X256.347 Y0.081
G01 X264.106 Y0.398
G01 X264.106 Y0.398
G01 X266.253 Y0.529
G01 X270.915 Y6.135
G01 X276.576 Y15.323
G01 X281.196 Y25.627
G01 X284.763 Y37.000
G01 X287.279 Y49.388
G01 X288.754 Y62.728
G01 X289.212 Y76.955
G01 X288.686 Y91.994
G01 X287.222 Y107.769
G01 X284.873 Y124.196
G01 X281.703 Y141.190
G01 X277.785 Y158.663
G01 X273.198 Y176.524
G01 X268.031 Y194.681
G01 X262.376 Y213.040
G01 X256.332 Y231.511
G01 X250.000 Y250.000
G01 X243.486 Y268.418
G01 X236.897 Y286.676
G01 X230.339 Y304.689
G01 X223.920 Y322.376
G01 X217.744 Y339.658
G01 X211.913 Y356.463
G01 X206.524 Y372.720
G01 X201.672 Y388.368
G01 X197.441 Y403.348
G01 X193.912 Y417.609
G01 X191.157 Y431.105
G01 X189.238 Y443.796
G01 X188.208 Y455.649
G01 X188.112 Y466.636
G01 X188.981 Y476.739
G01 X190.837 Y485.940
G01 X193.445 Y493.519
G01 X193.835 Y493.609
G01 X198.975 Y494.738
G01 X204.635 Y495.850
G01 X210.828 Y496.912
G01 X217.568 Y497.887
G01 X224.858 Y498.733
G01 X232.696 Y499.400
G01 X241.069 Y499.840
G01 X249.951 Y500.000
G01 X259.305 Y499.827
G01 X269.078 Y499.271
G01 X279.201 Y498.289
G01 X289.594 Y496.845
G01 X300.164 Y494.915
G01 X310.809 Y492.492
G01 X321.422 Y489.581
G01 X331.897 Y486.205
G01 X342.131 Y482.405
G01 X352.032 Y478.231
G01 X361.519 Y473.749
G01 X370.528 Y469.027
G01 X379.010 Y464.141
G01 X386.931 Y459.165
G01 X394.277 Y454.167
G01 X401.042 Y449.214
G01 X407.235 Y444.364
G01 X412.872 Y439.665
G01 X417.977 Y435.158
G01 X422.578 Y430.878
G01 X426.705 Y426.849
G01 X426.705 Y426.849
G01 X429.908 Y423.589
G01 X429.794 Y422.519
G01 X427.584 Y414.003
G01 X424.053 Y405.280
G01 X419.214 Y396.353
G01 X413.096 Y387.222
G01 X405.738 Y377.887
G01 X397.192 Y368.347
G01 X387.522 Y358.601
G01 X376.803 Y348.647
G01 X365.120 Y338.485
G01 X352.569 Y328.116
G01 X339.254 Y317.540
G01 X325.286 Y306.759
G01 X310.785 Y295.778
G01 X295.875 Y284.602
G01 X280.685 Y273.240
G01 X265.348 Y261.702
G01 X250.000 Y250.000
G01 X234.775 Y238.150
G01 X219.810 Y226.169
G01 X205.238 Y214.078
G01 X191.189 Y201.902
G01 X177.789 Y189.665
G01 X165.160 Y177.397
G01 X153.416 Y165.130
G01 X142.664 Y152.897
G01 X132.999 Y140.734
G01 X124.512 Y128.680
G01 X117.277 Y116.775
G01 X111.362 Y105.060
G01 X106.820 Y93.578
G01 X103.691 Y82.374
G01 X102.004 Y71.490
G01 X101.773 Y60.972
G01 X102.999 Y50.864
G01 X104.064 Y47.016
G01 X107.842 Y44.352
G01 X114.721 Y39.763
G01 X122.192 Y35.139
G01 X130.282 Y30.529
G01 X139.012 Y25.987
G01 X148.396 Y21.578
G01 X158.437 Y17.371
G01 X169.123 Y13.444
G01 X180.430 Y9.875
G01 X180.448 Y9.870
G01 X192.315 Y6.746
G01 X192.706 Y6.654
G01 X204.715 Y4.136
G01 X205.428 Y4.005
G01 X217.552 Y2.115
G01 X218.519 Y1.990
G01 X230.727 Y0.744
G01 X231.872 Y0.658
G01 X244.128 Y0.069
G01 X245.364 Y0.043
G01 X257.635 Y0.117
G01 X258.870 Y0.157
G01 X271.119 Y0.894
G01 X272.263 Y0.993
G01 X284.454 Y2.386
G01 X285.420 Y2.522
G01 X297.521 Y4.558
G01 X298.231 Y4.697
G01 X310.210 Y7.359
G01 X310.600 Y7.456
G01 X322.428 Y10.721
G01 X322.446 Y10.727
G01 X334.099 Y14.570
G01 X345.167 Y18.822
G01 X355.594 Y23.395
G01 X365.359 Y28.207
G01 X374.456 Y33.181
G01 X382.893 Y38.247
G01 X390.686 Y43.342
G01 X397.861 Y48.414
G01 X404.447 Y53.414
G01 X404.447 Y53.414
G01 X406.693 Y55.199
G01 X407.943 Y61.333
G01 X408.484 Y71.507
G01 X407.554 Y81.992
G01 X405.160 Y92.742
G01 X401.321 Y103.715
G01 X396.067 Y114.867
G01 X389.445 Y126.159
G01 X381.511 Y137.550
G01 X372.335 Y149.003
G01 X361.996 Y160.484
G01 X350.585 Y171.960
G01 X338.202 Y183.400
G01 X324.955 Y194.779
G01 X310.959 Y206.071
G01 X296.337 Y217.256
G01 X281.216 Y228.315
G01 X265.726 Y239.234
G01 X250.000 Y250.000
G01 X234.174 Y260.604
G01 X218.382 Y271.039
G01 X202.757 Y281.301
G01 X187.431 Y291.388
G01 X172.531 Y301.301
G01 X158.180 Y311.040
G01 X144.493 Y320.611
G01 X131.581 Y330.016
G01 X119.544 Y339.262
G01 X108.476 Y348.355
G01 X98.458 Y357.300
G01 X89.563 Y366.103
G01 X81.851 Y374.769
G01 X75.374 Y383.302
G01 X70.167 Y391.706
G01 X66.257 Y399.981
G01 X63.657 Y408.126
G01 X62.494 Y415.353
G01 X62.828 Y415.731
G01 X66.701 Y420.005
G01 X71.032 Y424.558
G01 X75.853 Y429.368
G01 X81.193 Y434.402
G01 X87.078 Y439.622
G01 X93.528 Y444.979
G01 X100.555 Y450.415
G01 X108.158 Y455.866
G01 X116.325 Y461.261
G01 X125.029 Y466.523
G01 X134.225 Y471.577
G01 X143.853 Y476.347
G01 X153.836 Y480.765
G01 X164.085 Y484.774
G01 X174.501 Y488.327
G01 X184.978 Y491.396
G01 X195.410 Y493.967
G01 X205.696 Y496.043
G01 X215.740 Y497.641
G01 X225.461 Y498.793
G01 X234.786 Y499.537
G01 X243.662 Y499.920
G01 X252.046 Y499.992
G01 X259.910 Y499.803
G01 X267.239 Y499.405
G01 X274.025 Y498.843
G01 X280.272 Y498.160
G01 X280.272 Y498.160
G01 X285.126 Y497.520
G01 X285.875 Y496.618
G01 X290.023 Y489.608
G01 X293.258 Y481.663
G01 X295.579 Y472.786
G01 X296.998 Y462.988
G01 X297.535 Y452.285
G01 X297.222 Y440.700
G01 X296.100 Y428.263
G01 X294.220 Y415.010
G01 X291.641 Y400.984
G01 X288.430 Y386.234
G01 X284.661 Y370.816
G01 X280.414 Y354.791
G01 X275.778 Y338.226
G01 X270.840 Y321.194
G01 X265.697 Y303.772
G01 X260.444 Y286.042
G01 X255.179 Y268.088
G01 X250.000 Y250.000
G01 X245.004 Y231.868
G01 X240.287 Y213.785
G01 X235.941 Y195.846
G01 X232.055 Y178.145
G01 X228.711 Y160.775
G01 X225.987 Y143.830
G01 X223.955 Y127.401
G01 X222.678 Y111.576
G01 X222.210 Y96.441
G01 X222.599 Y82.076
G01 X223.880 Y68.558
G01 X226.082 Y55.957
G01 X229.221 Y44.338
G01 X233.303 Y33.760
G01 X238.325 Y24.272
G01 X244.271 Y15.918
G01 X251.118 Y8.734
G01 X258.829 Y2.746
G01 X263.120 Y0.345
G01 X267.180 Y0.591
G01 X275.933 Y1.349
G01 X285.175 Y2.487
G01 X294.888 Y4.063
G01 X305.047 Y6.136
G01 X315.611 Y8.763
G01 X326.527 Y12.001
G01 X337.725 Y15.897
G01 X337.743 Y15.904
G01 X349.124 Y20.491
G01 X349.493 Y20.651
G01 X360.627 Y25.809
G01 X361.276 Y26.130
G01 X372.126 Y31.860
G01 X372.977 Y32.338
G01 X383.509 Y38.634
G01 X384.478 Y39.250
G01 X394.657 Y46.102
G01 X395.664 Y46.820
G01 X405.458 Y54.212
G01 X406.424 Y54.983
G01 X415.805 Y62.894
G01 X416.662 Y63.657
G01 X425.605 Y72.059
G01 X426.298 Y72.746
G01 X434.783 Y81.610
G01 X435.270 Y82.146
G01 X443.283 Y91.439
G01 X443.538 Y91.750
G01 X451.070 Y101.437
G01 X451.081 Y101.452
G01 X458.128 Y111.498
G01 X464.461 Y121.522
G01 X470.088 Y131.419
G01 X475.041 Y141.113
G01 X479.363 Y150.538
G01 X483.099 Y159.642
G01 X486.303 Y168.385
G01 X489.025 Y176.738
G01 X489.025 Y176.738
G01 X489.591 Y178.612
G01 X487.465 Y185.726
G01 X483.309 Y194.566
G01 X477.804 Y202.832
G01 X470.970 Y210.483
G01 X462.837 Y217.490
G01 X453.444 Y223.828
G01 X442.843 Y229.483
G01 X431.091 Y234.449
G01 X418.256 Y238.729
G01 X404.414 Y242.334
G01 X389.647 Y245.283
G01 X374.047 Y247.604
G01 X357.707 Y249.331
G01 X340.729 Y250.507
G01 X323.216 Y251.179
G01 X305.277 Y251.402
G01 X287.020 Y251.237
G01 X268.557 Y250.747
G01 X250.000 Y250.000
G01 X231.459 Y249.068
G01 X213.042 Y248.024
G01 X194.858 Y246.943
G01 X177.009 Y245.899
G01 X159.595 Y244.966
G01 X142.710 Y244.218
G01 X126.443 Y243.725
G01 X110.878 Y243.554
G01 X96.090 Y243.768
G01 X82.147 Y244.426
G01 X69.112 Y245.581
G01 X57.036 Y247.278
G01 X45.966 Y249.558
G01 X35.937 Y252.453
G01 X26.976 Y255.986
G01 X19.104 Y260.174
G01 X12.330 Y265.024
G01 X6.657 Y270.534
G01 X2.079 Y276.693
G01 X1.543 Y277.734
G01 X2.188 Y283.001
G01 X3.178 Y289.738
G01 X4.451 Y296.966
G01 X6.050 Y304.668
G01 X8.021 Y312.818
G01 X10.406 Y321.376
G01 X13.244 Y330.290
G01 X16.568 Y339.496
G01 X20.402 Y348.917
G01 X24.755 Y358.465
G01 X29.623 Y368.043
G01 X34.987 Y377.552
G01 X40.809 Y386.891
G01 X47.036 Y395.965
G01 X53.602 Y404.687
G01 X60.430 Y412.983
G01 X67.437 Y420.794
G01 X74.535 Y428.078
G01 X81.640 Y434.811
G01 X88.673 Y440.980
G01 X95.560 Y446.592
G01 X102.239 Y451.660
G01 X108.657 Y456.209
G01 X114.771 Y460.269
G01 X120.548 Y463.874
G01 X120.548 Y463.874
G01 X123.454 Y465.606
G01 X126.945 Y465.345
G01 X134.429 Y463.537
G01 X141.751 Y460.475
G01 X148.905 Y456.151
G01 X155.887 Y450.567
G01 X162.701 Y443.738
G01 X169.352 Y435.690
G01 X175.854 Y426.457
G01 X182.219 Y416.088
G01 X188.467 Y404.640
G01 X194.619 Y392.182
G01 X200.699 Y378.790
G01 X206.732 Y364.551
G01 X212.745 Y349.561
G01 X218.768 Y333.922
G01 X224.828 Y317.744
G01 X230.954 Y301.140
G01 X237.174 Y284.233
G01 X243.514 Y267.144
G01 X250.000 Y250.000
G01 X256.654 Y232.929
G01 X263.498 Y216.059
G01 X270.547 Y199.517
G01 X277.817 Y183.428
G01 X285.318 Y167.915
G01 X293.055 Y153.095
G01 X301.033 Y139.080
G01 X309.248 Y125.977
G01 X317.693 Y113.884
G01 X326.359 Y102.892
G01 X335.230 Y93.081
G01 X344.284 Y84.522
G01 X353.499 Y77.275
G01 X362.845 Y71.390
G01 X372.290 Y66.905
G01 X381.797 Y63.843
G01 X391.326 Y62.219
G01 X400.834 Y62.032
G01 X410.275 Y63.271
G01 X418.945 Y65.724
G01 X419.393 Y66.136
G01 X426.122 Y72.571
G01 X432.969 Y79.640
G01 X439.875 Y87.373
G01 X446.775 Y95.793
G01 X453.592 Y104.912
G01 X460.242 Y114.729
G01 X460.252 Y114.745
G01 X466.636 Y125.224
G01 X466.836 Y125.573
G01 X472.680 Y136.362
G01 X473.008 Y137.008
G01 X478.284 Y148.086
G01 X478.680 Y148.978
G01 X483.361 Y160.320
G01 X483.771 Y161.393
G01 X487.837 Y172.971
G01 X488.215 Y174.148
G01 X491.650 Y185.928
G01 X491.964 Y187.123
G01 X494.758 Y199.072
G01 X494.989 Y200.197
G01 X497.138 Y212.278
G01 X497.283 Y213.242
G01 X498.789 Y225.420
G01 X498.859 Y226.141
G01 X499.730 Y238.381
G01 X499.748 Y238.782
G01 X499.998 Y251.050
G01 X499.998 Y251.069
G01 X499.644 Y263.335
G01 X498.731 Y275.156
G01 X497.328 Y286.455
G01 X495.506 Y297.188
G01 X493.339 Y307.327
G01 X490.894 Y316.859
G01 X490.894 Y316.859
G01 X489.013 Y323.298
G01 X487.340 Y325.498
G01 X480.485 Y332.342
G01 X472.846 Y338.028
G01 X464.454 Y342.511
G01 X455.343 Y345.761
G01 X445.551 Y347.758
G01 X435.121 Y348.494
G01 X424.097 Y347.976
G01 X412.526 Y346.221
G01 X400.458 Y343.258
G01 X387.944 Y339.129
G01 X375.036 Y333.887
G01 X361.789 Y327.595
G01 X348.256 Y320.327
G01 X334.491 Y312.165
G01 X320.549 Y303.201
G01 X306.483 Y293.533
G01 X292.345 Y283.266
G01 X278.186 Y272.512
G01 X264.055 Y261.383
G01 X250.000 Y250.000
G01 X236.065 Y238.481
G01 X222.293 Y226.948
G01 X208.724 Y215.521
G01 X195.396 Y204.318
G01 X182.342 Y193.455
G01 X169.594 Y183.045
G01 X157.181 Y173.193
G01 X145.128 Y164.001
G01 X133.457 Y155.563
G01 X122.189 Y147.963
G01 X111.340 Y141.279
G01 X100.925 Y135.577
G01 X90.956 Y130.916
G01 X81.442 Y127.340
G01 X72.390 Y124.884
G01 X63.808 Y123.574
G01 X55.698 Y123.419
G01 X48.064 Y124.420
G01 X40.907 Y126.565
G01 X34.228 Y129.831
G01 X28.688 Y133.719
G01 X28.356 Y134.354
G01 X25.057 Y140.910
G01 X21.736 Y148.041
G01 X18.446 Y155.753
G01 X15.243 Y164.040
G01 X12.191 Y172.883
G01 X9.355 Y182.251
G01 X6.798 Y192.096
G01 X4.583 Y202.352
G01 X2.762 Y212.941
G01 X1.380 Y223.771
G01 X0.466 Y234.738
G01 X0.036 Y245.735
G01 X0.089 Y256.652
G01 X0.605 Y267.384
G01 X1.554 Y277.834
G01 X2.892 Y287.916
G01 X4.566 Y297.560
G01 X6.517 Y306.710
G01 X8.686 Y315.325
G01 X11.012 Y323.380
G01 X13.439 Y330.863
G01 X13.439 Y330.863
G01 X15.165 Y335.745
G01 X16.654 Y337.495
G01 X22.348 Y342.508
G01 X28.641 Y346.502
G01 X35.536 Y349.445
G01 X43.035 Y351.315
G01 X51.136 Y352.101
G01 X59.836 Y351.804
G01 X69.130 Y350.438
G01 X79.006 Y348.024
G01 X89.454 Y344.600
G01 X100.456 Y340.209
G01 X111.995 Y334.908
G01 X124.046 Y328.762
G01 X136.584 Y321.845
G01 X149.578 Y314.241
G01 X162.994 Y306.039
G01 X176.795 Y297.335
G01 X190.938 Y288.232
G01 X205.380 Y278.837
G01 X220.072 Y269.258
G01 X234.963 Y259.608
G01 X250.000 Y250.000
G01 X265.126 Y240.547
G01 X280.282 Y231.361
G01 X295.408 Y222.551
G01 X310.442 Y214.223
G01 X325.321 Y206.479
G01 X339.982 Y199.413
G01 X354.361 Y193.116
G01 X368.395 Y187.669
G01 X382.022 Y183.144
G01 X395.180 Y179.606
G01 X407.810 Y177.109
G01 X419.855 Y175.697
G01 X431.262 Y175.403
G01 X441.979 Y176.247
G01 X451.959 Y178.241
G01 X461.158 Y181.383
G01 X469.539 Y185.659
G01 X477.067 Y191.045
G01 X483.714 Y197.504
G01 X489.455 Y204.989
G01 X494.274 Y213.442
G01 X498.158 Y222.795
G01 X498.720 Y224.738
G01 X499.427 Y233.084
G01 X499.927 Y243.958
G01 X499.943 Y255.344
G01 X499.408 Y267.189
G01 X499.407 Y267.208
G01 X498.262 Y279.425
G01 X498.215 Y279.824
G01 X496.452 Y291.967
G01 X496.330 Y292.681
G01 X493.939 Y304.716
G01 X493.723 Y305.668
G01 X490.698 Y317.560
G01 X490.385 Y318.665
G01 X486.727 Y330.377
G01 X486.326 Y331.547
G01 X482.040 Y343.044
G01 X481.577 Y344.191
G01 X476.677 Y355.440
G01 X476.190 Y356.480
G01 X470.693 Y367.451
G01 X470.233 Y368.311
G01 X464.162 Y378.975
G01 X463.788 Y379.595
G01 X457.171 Y389.929
G01 X456.946 Y390.262
G01 X449.815 Y400.247
G01 X449.803 Y400.262
G01 X442.189 Y409.885
G01 X434.392 Y418.818
G01 X426.515 Y427.038
G01 X418.641 Y434.555
G01 X418.641 Y434.555
G01 X416.254 Y436.707
G01 X409.929 Y440.300
G01 X400.634 Y444.278
G01 X391.293 Y446.963
G01 X381.962 Y448.315
G01 X372.693 Y448.307
G01 X363.536 Y446.924
G01 X354.536 Y444.159
G01 X345.733 Y440.021
G01 X337.166 Y434.528
G01 X328.864 Y427.711
G01 X320.856 Y419.610
G01 X313.162 Y410.278
G01 X305.798 Y399.777
G01 X298.775 Y388.179
G01 X292.097 Y375.564
G01 X285.765 Y362.021
G01 X279.771 Y347.647
G01 X274.106 Y332.543
G01 X268.754 Y316.818
G01 X263.693 Y300.584
G01 X258.900 Y283.958
G01 X254.346 Y267.056
G01 X250.000 Y250.000
G01 X245.826 Y232.908
G01 X241.788 Y215.900
G01 X237.847 Y199.093
G01 X233.963 Y182.601
G01 X230.096 Y166.535
G01 X226.204 Y150.999
G01 X222.249 Y136.094
G01 X218.190 Y121.914
G01 X213.992 Y108.544
G01 X209.621 Y96.062
G01 X205.044 Y84.539
G01 X200.234 Y74.035
G01 X195.167 Y64.601
G01 X189.824 Y56.279
G01 X184.190 Y49.101
G01 X178.257 Y43.089
G01 X172.021 Y38.253
G01 X165.483 Y34.596
G01 X158.652 Y32.109
G01 X151.543 Y30.774
G01 X144.176 Y30.566
G01 X136.576 Y31.447
G01 X128.777 Y33.374
G01 X120.817 Y36.295
G01 X118.339 Y37.478
G01 X113.150 Y40.782
G01 X105.418 Y46.049
G01 X97.545 Y51.865
G01 X89.612 Y58.230
G01 X81.706 Y65.129
G01 X73.918 Y72.532
G01 X66.338 Y80.388
G01 X59.051 Y88.636
G01 X52.134 Y97.196
G01 X45.652 Y105.980
G01 X39.652 Y114.893
G01 X34.168 Y123.839
G01 X29.215 Y132.723
G01 X24.793 Y141.455
G01 X24.793 Y141.455
G01 X20.943 Y149.836
G01 X20.898 Y149.961
G01 X18.549 Y158.583
G01 X17.103 Y166.927
G01 X16.607 Y174.939
G01 X17.105 Y182.575
G01 X18.633 Y189.796
G01 X21.221 Y196.571
G01 X24.889 Y202.876
G01 X29.653 Y208.695
G01 X35.516 Y214.019
G01 X42.477 Y218.846
G01 X50.521 Y223.183
G01 X59.629 Y227.044
G01 X69.771 Y230.447
G01 X80.907 Y233.419
G01 X92.990 Y235.993
G01 X105.965 Y238.205
G01 X119.766 Y240.100
G01 X134.323 Y241.723
G01 X149.557 Y243.126
G01 X165.382 Y244.360
G01 X181.706 Y245.483
G01 X198.433 Y246.551
G01 X215.461 Y247.621
G01 X232.686 Y248.752
G01 X250.000 Y250.000
G01 X267.293 Y251.421
G01 X284.454 Y253.067
G01 X301.373 Y254.989
G01 X317.940 Y257.234
G01 X334.047 Y259.844
G01 X349.588 Y262.856
G01 X364.463 Y266.304
G01 X378.574 Y270.214
G01 X391.832 Y274.606
G01 X404.149 Y279.496
G01 X415.450 Y284.891
G01 X425.664 Y290.792
G01 X434.731 Y297.193
G01 X442.597 Y304.081
G01 X449.219 Y311.437
G01 X454.567 Y319.234
G01 X458.616 Y327.441
G01 X461.355 Y336.016
G01 X462.782 Y344.917
G01 X462.908 Y354.091
G01 X461.751 Y363.484
G01 X459.342 Y373.035
G01 X455.721 Y382.681
G01 X450.939 Y392.353
G01 X445.055 Y401.982
G01 X438.136 Y411.495
G01 X430.260 Y420.818
G01 X421.510 Y429.877
G01 X411.976 Y438.597
G01 X401.755 Y446.905
G01 X390.946 Y454.727
G01 X379.656 Y461.994
G01 X367.991 Y468.638
G01 X356.062 Y474.595
G01 X343.980 Y479.804
G01 X331.854 Y484.210
G01 X319.794 Y487.761
G01 X307.907 Y490.414
G01 X296.297 Y492.128
G01 X285.064 Y492.870
G01 X274.302 Y492.615
G01 X264.101 Y491.342
G01 X254.541 Y489.040
G01 X245.697 Y485.703
G01 X237.635 Y481.333
G01 X230.412 Y475.938
G01 X224.077 Y469.536
G01 X218.666 Y462.148
G01 X214.207 Y453.804
G01 X210.720 Y444.541
G01 X208.209 Y434.399
G01 X206.673 Y423.428
G01 X206.098 Y411.679
G01 X206.459 Y399.211
G01 X207.724 Y386.085
G01 X209.849 Y372.367
G01 X212.783 Y358.127
G01 X216.464 Y343.436
G01 X220.825 Y328.367
G01 X225.790 Y312.995
G01 X231.279 Y297.397
G01 X237.205 Y281.648
G01 X243.477 Y265.824
G01 X250.000 Y250.000
G01 X256.679 Y234.249
G01 X263.414 Y218.642
G01 X270.109 Y203.249
G01 X276.664 Y188.134
G01 X282.986 Y173.361
G01 X288.979 Y158.988
G01 X294.557 Y145.069
G01 X299.633 Y131.656
G01 X304.129 Y118.794
G01 X307.974 Y106.524
G01 X311.101 Y94.882
G01 X313.455 Y83.898
G01 X314.986 Y73.601
G01 X315.656 Y64.010
G01 X315.435 Y55.141
G01 X314.303 Y47.007
G01 X312.251 Y39.615
G01 X309.279 Y32.966
G01 X305.399 Y27.060
G01 X300.632 Y21.890
G01 X295.010 Y17.448
G01 X288.573 Y13.720
G01 X281.373 Y10.692
G01 X273.470 Y8.346
G01 X264.931 Y6.660
G01 X255.831 Y5.614
G01 X246.254 Y5.183
G01 X236.289 Y5.343
G01 X226.028 Y6.068
G01 X215.570 Y7.332
G01 X205.016 Y9.110
G01 X194.470 Y11.376
G01 X184.037 Y14.104
G01 X173.822 Y17.271
G01 X163.927 Y20.853
G01 X154.456 Y24.828
G01 X145.506 Y29.176
G01 X137.173 Y33.877
G01 X129.544 Y38.914
G01 X122.705 Y44.272
G01 X116.731 Y49.936
G01 X111.690 Y55.895
G01 X107.642 Y62.137
G01 X104.639 Y68.655
G01 X102.721 Y75.440
G01 X101.918 Y82.487
G01 X102.252 Y89.791
G01 X103.730 Y97.348
G01 X106.351 Y105.155
G01 X110.102 Y113.210
G01 X114.959 Y121.511
G01 X120.888 Y130.055
G01 X127.841 Y138.842
G01 X135.764 Y147.869
G01 X144.592 Y157.131
G01 X154.249 Y166.626
G01 X164.652 Y176.349
G01 X175.710 Y186.292
G01 X187.327 Y196.448
G01 X199.398 Y206.806
G01 X211.814 Y217.355
G01 X224.464 Y228.082
G01 X237.231 Y238.970
G01 X250.000 Y250.000
G01 X262.652 Y261.153
G01 X275.070 Y272.405
G01 X287.139 Y283.731
G01 X298.745 Y295.103
G01 X309.781 Y306.493
G01 X320.143 Y317.868
G01 X329.732 Y329.195
G01 X338.458 Y340.439
G01 X346.237 Y351.562
G01 X352.995 Y362.527
G01 X358.668 Y373.295
G01 X363.199 Y383.826
G01 X366.545 Y394.079
G01 X368.673 Y404.015
G01 X369.561 Y413.593
G01 X369.198 Y422.775
G01 X367.586 Y431.520
G01 X364.738 Y439.793
G01 X360.680 Y447.556
G01 X355.448 Y454.777
G01 X349.091 Y461.423
G01 X341.665 Y467.465
G01 X333.241 Y472.877
G01 X323.896 Y477.635
G01 X313.718 Y481.719
G01 X302.802 Y485.112
G01 X291.249 Y487.801
G01 X279.169 Y489.776
G01 X266.675 Y491.032
G01 X253.886 Y491.567
G01 X240.920 Y491.383
G01 X227.902 Y490.487
G01 X214.955 Y488.888
G01 X202.201 Y486.599
G01 X189.761 Y483.639
G01 X177.755 Y480.028
G01 X166.296 Y475.790
G01 X155.494 Y470.951
G01 X145.453 Y465.543
G01 X136.271 Y459.596
G01 X128.035 Y453.146
G01 X120.826 Y446.229
G01 X114.715 Y438.882
G01 X109.764 Y431.144
G01 X106.021 Y423.057
G01 X103.528 Y414.658
G01 X102.311 Y405.989
G01 X102.386 Y397.090
G01 X103.759 Y387.999
G01 X106.422 Y378.756
G01 X110.357 Y369.396
G01 X115.532 Y359.955
G01 X121.907 Y350.467
G01 X129.430 Y340.963
G01 X138.039 Y331.471
G01 X147.661 Y322.017
G01 X158.216 Y312.626
G01 X169.616 Y303.318
G01 X181.764 Y294.110
G01 X194.559 Y285.018
G01 X207.893 Y276.053
G01 X221.655 Y267.225
G01 X235.729 Y258.540
G01 X250.000 Y250.000
G01 X264.349 Y241.608
G01 X278.658 Y233.361
G01 X292.812 Y225.256
G01 X306.695 Y217.289
G01 X320.197 Y209.451
G01 X333.211 Y201.735
G01 X345.637 Y194.131
G01 X357.379 Y186.630
G01 X368.349 Y179.222
G01 X378.467 Y171.897
G01 X387.663 Y164.644
G01 X395.872 Y157.456
G01 X403.043 Y150.324
G01 X409.133 Y143.242
G01 X414.109 Y136.206
G01 X417.948 Y129.214
G01 X420.641 Y122.265
G01 X422.185 Y115.361
G01 X422.591 Y108.509
G01 X421.878 Y101.715
G01 X420.077 Y94.992
G01 X417.227 Y88.352
G01 X413.375 Y81.815
G01 X408.581 Y75.400
G01 X402.907 Y69.130
G01 X396.426 Y63.034
G01 X389.216 Y57.139
G01 X381.360 Y51.479
G01 X372.946 Y46.088
G01 X364.066 Y41.003
G01 X354.813 Y36.262
G01 X345.283 Y31.906
G01 X335.573 Y27.975
G01 X325.777 Y24.513
G01 X315.991 Y21.560
G01 X306.306 Y19.159
G01 X296.811 Y17.351
G01 X287.591 Y16.176
G01 X278.726 Y15.672
G01 X270.289 Y15.876
G01 X262.347 Y16.821
G01 X254.962 Y18.537
G01 X248.186 Y21.051
G01 X242.064 Y24.385
G01 X236.631 Y28.557
G01 X231.915 Y33.580
G01 X227.935 Y39.463
G01 X224.700 Y46.208
G01 X222.209 Y53.811
G01 X220.455 Y62.263
G01 X219.420 Y71.548
G01 X219.076 Y81.645
G01 X219.391 Y92.525
G01 X220.322 Y104.155
G01 X221.820 Y116.493
G01 X223.829 Y129.494
G01 X226.287 Y143.104
G01 X229.128 Y157.267
G01 X232.279 Y171.919
G01 X235.666 Y186.992
G01 X239.212 Y202.414
G01 X242.837 Y218.110
G01 X246.459 Y233.999
G01 X250.000 Y250.000
G01 X253.379 Y266.028
G01 X256.518 Y281.997
G01 X259.342 Y297.822
G01 X261.779 Y313.414
G01 X263.761 Y328.688
G01 X265.227 Y343.558
G01 X266.120 Y357.943
G01 X266.388 Y371.762
G01 X265.989 Y384.937
G01 X264.888 Y397.397
G01 X263.055 Y409.072
G01 X260.472 Y419.901
G01 X257.126 Y429.825
G01 X253.016 Y438.796
G01 X248.148 Y446.767
G01 X242.537 Y453.704
G01 X236.207 Y459.577
G01 X229.189 Y464.364
G01 X221.524 Y468.052
G01 X213.260 Y470.636
G01 X204.453 Y472.120
G01 X195.165 Y472.513
G01 X185.466 Y471.836
G01 X175.430 Y470.116
G01 X165.136 Y467.388
G01 X154.668 Y463.693
G01 X144.114 Y459.080
G01 X133.564 Y453.607
G01 X123.108 Y447.333
G01 X112.841 Y440.326
G01 X102.855 Y432.658
G01 X93.241 Y424.404
G01 X84.090 Y415.645
G01 X75.490 Y406.461
G01 X67.524 Y396.937
G01 X60.274 Y387.157
G01 X53.813 Y377.207
G01 X48.213 Y367.172
G01 X43.537 Y357.134
G01 X39.840 Y347.175
G01 X37.173 Y337.374
G01 X35.576 Y327.806
G01 X35.084 Y318.540
G01 X35.720 Y309.643
G01 X37.501 Y301.175
G01 X40.435 Y293.190
G01 X44.518 Y285.735
G01 X49.742 Y278.851
G01 X56.087 Y272.571
G01 X63.525 Y266.920
G01 X72.020 Y261.917
G01 X81.527 Y257.571
G01 X91.997 Y253.884
G01 X103.368 Y250.851
G01 X115.578 Y248.457
G01 X128.553 Y246.681
G01 X142.219 Y245.495
G01 X156.494 Y244.864
G01 X171.293 Y244.745
G01 X186.528 Y245.091
G01 X202.109 Y245.850
G01 X217.943 Y246.962
G01 X233.938 Y248.367
G01 X250.000 Y250.000
G01 X266.038 Y251.792
G01 X281.960 Y253.675
G01 X297.678 Y255.578
G01 X313.106 Y257.431
G01 X328.162 Y259.164
G01 X342.767 Y260.709
G01 X356.849 Y261.999
G01 X370.339 Y262.973
G01 X383.174 Y263.571
G01 X395.299 Y263.740
G01 X406.662 Y263.429
G01 X417.220 Y262.597
G01 X426.938 Y261.207
G01 X435.784 Y259.228
G01 X443.737 Y256.638
G01 X450.780 Y253.424
G01 X456.906 Y249.577
G01 X462.111 Y245.100
G01 X466.400 Y240.003
G01 X469.785 Y234.302
G01 X472.282 Y228.025
G01 X473.914 Y221.204
G01 X474.707 Y213.883
G01 X474.696 Y206.109
G01 X473.915 Y197.939
G01 X472.407 Y189.435
G01 X470.213 Y180.666
G01 X467.381 Y171.705
G01 X463.959 Y162.630
G01 X459.997 Y153.522
G01 X455.544 Y144.466
G01 X450.654 Y135.549
G01 X445.376 Y126.859
G01 X439.760 Y118.483
G01 X433.856 Y110.510
G01 X427.711 Y103.025
G01 X421.370 Y96.112
G01 X414.876 Y89.851
G01 X408.268 Y84.318
G01 X401.583 Y79.584
G01 X394.854 Y75.714
G01 X388.112 Y72.768
G01 X381.380 Y70.795
G01 X374.681 Y69.839
G01 X368.033 Y69.936
G01 X361.449 Y71.111
G01 X354.940 Y73.382
G01 X348.510 Y76.755
G01 X342.162 Y81.227
G01 X335.894 Y86.787
G01 X329.702 Y93.413
G01 X323.579 Y101.071
G01 X317.513 Y109.720
G01 X311.493 Y119.310
G01 X305.502 Y129.779
G01 X299.525 Y141.061
G01 X293.544 Y153.077
G01 X287.540 Y165.744
G01 X281.494 Y178.972
G01 X275.388 Y192.665
G01 X269.203 Y206.720
G01 X262.920 Y221.034
G01 X256.525 Y235.498
G01 X250.000 Y250.000
G01 X243.334 Y264.429
G01 X236.515 Y278.674
G01 X229.536 Y292.622
G01 X222.390 Y306.166
G01 X215.075 Y319.198
G01 X207.593 Y331.617
G01 X199.946 Y343.325
G01 X192.142 Y354.231
G01 X184.192 Y364.249
G01 X176.110 Y373.302
G01 X167.915 Y381.322
G01 X159.626 Y388.247
G01 X151.269 Y394.027
G01 X142.872 Y398.621
G01 X134.463 Y401.999
G01 X126.076 Y404.140
G01 X117.747 Y405.037
G01 X109.513 Y404.690
G01 X101.413 Y403.114
G01 X93.487 Y400.332
G01 X85.777 Y396.378
G01 X78.325 Y391.298
G01 X71.174 Y385.146
G01 X64.365 Y377.988
G01 X57.941 Y369.896
G01 X51.942 Y360.952
G01 X46.408 Y351.244
G01 X41.377 Y340.868
G01 X36.883 Y329.926
G01 X32.961 Y318.522
G01 X29.640 Y306.767
G01 X26.949 Y294.772
G01 X24.911 Y282.653
G01 X23.548 Y270.523
G01 X22.876 Y258.496
G01 X22.908 Y246.686
G01 X23.653 Y235.201
G01 X25.117 Y224.149
G01 X27.301 Y213.631
G01 X30.200 Y203.742
G01 X33.810 Y194.573
G01 X38.117 Y186.205
G01 X43.107 Y178.714
G01 X48.761 Y172.163
G01 X55.057 Y166.610
G01 X61.969 Y162.101
G01 X69.469 Y158.671
G01 X77.524 Y156.346
G01 X86.100 Y155.140
G01 X95.162 Y155.058
G01 X104.670 Y156.092
G01 X114.585 Y158.224
G01 X124.865 Y161.427
G01 X135.469 Y165.660
G01 X146.353 Y170.877
G01 X157.474 Y177.018
G01 X168.790 Y184.018
G01 X180.258 Y191.802
G01 X191.837 Y200.289
G01 X203.484 Y209.390
G01 X215.162 Y219.011
G01 X226.831 Y229.055
G01 X238.455 Y239.420
G01 X250.000 Y250.000
G01 X261.433 Y260.690
G01 X272.723 Y271.383
G01 X283.843 Y281.974
G01 X294.766 Y292.357
G01 X305.469 Y302.431
G01 X315.931 Y312.098
G01 X326.133 Y321.263
G01 X336.058 Y329.839
G01 X345.692 Y337.743
G01 X355.021 Y344.900
G01 X364.036 Y351.245
G01 X372.728 Y356.717
G01 X381.089 Y361.267
G01 X389.114 Y364.854
G01 X396.798 Y367.449
G01 X404.137 Y369.031
G01 X411.128 Y369.590
G01 X417.769 Y369.124
G01 X424.057 Y367.646
G01 X429.992 Y365.174
G01 X435.570 Y361.740
G01 X440.790 Y357.381
G01 X445.649 Y352.148
G01 X450.144 Y346.096
G01 X454.270 Y339.291
G01 X458.024 Y331.804
G01 X461.399 Y323.714
G01 X464.389 Y315.105
G01 X466.986 Y306.065
G01 X469.182 Y296.687
G01 X470.967 Y287.066
G01 X472.330 Y277.299
G01 X473.261 Y267.483
G01 X473.747 Y257.717
G01 X473.776 Y248.097
G01 X473.334 Y238.716
G01 X472.409 Y229.667
G01 X470.986 Y221.036
G01 X469.054 Y212.906
G01 X466.598 Y205.352
G01 X463.608 Y198.445
G01 X460.072 Y192.247
G01 X455.981 Y186.813
G01 X451.325 Y182.189
G01 X446.099 Y178.413
G01 X440.299 Y175.512
G01 X433.921 Y173.505
G01 X426.967 Y172.402
G01 X419.439 Y172.202
G01 X411.343 Y172.893
G01 X402.690 Y174.456
G01 X393.492 Y176.862
G01 X383.764 Y180.071
G01 X373.526 Y184.038
G01 X362.802 Y188.706
G01 X351.619 Y194.012
G01 X340.006 Y199.888
G01 X327.999 Y206.256
G01 X315.635 Y213.036
G01 X302.955 Y220.142
G01 X290.002 Y227.484
G01 X276.825 Y234.971
G01 X263.474 Y242.508
G01 X250.000 Y250.000
G01 X236.458 Y257.354
G01 X222.906 Y264.475
G01 X209.400 Y271.273
G01 X195.999 Y277.660
G01 X182.764 Y283.552
G01 X169.753 Y288.869
G01 X157.027 Y293.539
G01 X144.645 Y297.493
G01 X132.662 Y300.674
G01 X121.137 Y303.028
G01 X110.122 Y304.513
G01 X99.670 Y305.093
G01 X89.827 Y304.744
G01 X80.640 Y303.449
G01 X72.149 Y301.202
G01 X64.392 Y298.008
G01 X57.401 Y293.879
G01 X51.203 Y288.840
G01 X45.823 Y282.922
G01 X41.276 Y276.168
G01 X37.576 Y268.628
G01 X34.729 Y260.364
G01 X32.736 Y251.440
G01 X31.593 Y241.933
G01 X31.290 Y231.923
G01 X31.811 Y221.498
G01 X33.135 Y210.748
G01 X35.237 Y199.770
G01 X38.085 Y188.664
G01 X41.644 Y177.531
G01 X45.874 Y166.473
G01 X50.732 Y155.594
G01 X56.170 Y144.996
G01 X62.138 Y134.781
G01 X68.583 Y125.047
G01 X75.450 Y115.889
G01 X82.683 Y107.397
G01 X90.223 Y99.658
G01 X98.014 Y92.750
G01 X105.996 Y86.747
G01 X114.112 Y81.713
G01 X122.306 Y77.707
G01 X130.524 Y74.778
G01 X138.712 Y72.964
G01 X146.822 Y72.297
G01 X154.805 Y72.798
G01 X162.619 Y74.477
G01 X170.226 Y77.337
G01 X177.588 Y81.369
G01 X184.677 Y86.555
G01 X191.467 Y92.866
G01 X197.936 Y100.266
G01 X204.069 Y108.709
G01 X209.856 Y118.141
G01 X215.292 Y128.498
G01 X220.377 Y139.711
G01 X225.115 Y151.704
G01 X229.518 Y164.394
G01 X233.599 Y177.694
G01 X237.378 Y191.511
G01 X240.879 Y205.749
G01 X244.128 Y220.310
G01 X247.158 Y235.094
G01 X250.000 Y250.000
G01 X252.692 Y264.926
G01 X255.271 Y279.771
G01 X257.777 Y294.438
G01 X260.250 Y308.830
G01 X262.732 Y322.854
G01 X265.262 Y336.421
G01 X267.880 Y349.448
G01 X270.624 Y361.856
G01 X273.531 Y373.574
G01 X276.634 Y384.536
G01 X279.964 Y394.684
G01 X283.547 Y403.966
G01 X287.408 Y412.341
G01 X291.564 Y419.774
G01 X296.030 Y426.237
G01 X300.815 Y431.714
G01 X305.922 Y436.194
G01 X311.349 Y439.677
G01 X317.090 Y442.168
G01 X323.130 Y443.682
G01 X329.451 Y444.243
G01 X336.029 Y443.878
G01 X342.833 Y442.625
G01 X349.827 Y440.525
G01 X356.972 Y437.626
G01 X364.221 Y433.983
G01 X371.526 Y429.652
G01 X378.832 Y424.694
G01 X386.082 Y419.175
G01 X393.216 Y413.161
G01 X400.171 Y406.720
G01 X406.884 Y399.921
G01 X413.288 Y392.835
G01 X419.319 Y385.530
G01 X424.909 Y378.074
G01 X429.995 Y370.531
G01 X434.514 Y362.966
G01 X438.404 Y355.438
G01 X441.608 Y348.004
G01 X444.073 Y340.715
G01 X445.747 Y333.619
G01 X446.588 Y326.758
G01 X446.554 Y320.168
G01 X445.614 Y313.881
G01 X443.740 Y307.922
G01 X440.912 Y302.311
G01 X437.119 Y297.060
G01 X432.356 Y292.178
G01 X426.624 Y287.664
G01 X419.936 Y283.514
G01 X412.309 Y279.719
G01 X403.772 Y276.262
G01 X394.358 Y273.124
G01 X384.111 Y270.278
G01 X373.079 Y267.695
G01 X361.322 Y265.342
G01 X348.903 Y263.183
G01 X335.891 Y261.178
G01 X322.365 Y259.287
G01 X308.404 Y257.465
G01 X294.096 Y255.670
G01 X279.530 Y253.856
G01 X264.800 Y251.981
G01 X250.000 Y250.000
G01 X235.229 Y247.872
G01 X220.583 Y245.558
G01 X206.161 Y243.020
G01 X192.059 Y240.223
G01 X178.373 Y237.138
G01 X165.193 Y233.737
G01 X152.610 Y229.997
G01 X140.707 Y225.901
G01 X129.563 Y221.436
G01 X119.253 Y216.594
G01 X109.842 Y211.372
G01 X101.391 Y205.774
G01 X93.953 Y199.807
G01 X87.570 Y193.485
G01 X82.279 Y186.827
G01 X78.106 Y179.858
G01 X75.069 Y172.607
G01 X73.175 Y165.108
G01 X72.423 Y157.400
G01 X72.804 Y149.526
G01 X74.295 Y141.532
G01 X76.869 Y133.469
G01 X80.488 Y125.389
G01 X85.103 Y117.347
G01 X90.662 Y109.402
G01 X97.101 Y101.610
G01 X104.350 Y94.032
G01 X112.336 Y86.727
G01 X120.975 Y79.754
G01 X130.181 Y73.172
G01 X139.865 Y67.036
G01 X149.932 Y61.403
G01 X160.287 Y56.324
G01 X170.832 Y51.849
G01 X181.468 Y48.023
G01 X192.099 Y44.889
G01 X202.627 Y42.484
G01 X212.960 Y40.841
G01 X223.004 Y39.988
G01 X232.674 Y39.948
G01 X241.887 Y40.739
G01 X250.566 Y42.372
G01 X258.640 Y44.854
G01 X266.046 Y48.186
G01 X272.726 Y52.362
G01 X278.633 Y57.371
G01 X283.727 Y63.198
G01 X287.976 Y69.820
G01 X291.358 Y77.211
G01 X293.860 Y85.339
G01 X295.478 Y94.167
G01 X296.218 Y103.655
G01 X296.093 Y113.758
G01 X295.128 Y124.428
G01 X293.355 Y135.613
G01 X290.814 Y147.259
G01 X287.553 Y159.310
G01 X283.628 Y171.707
G01 X279.101 Y184.391
G01 X274.041 Y197.302
G01 X268.521 Y210.378
G01 X262.619 Y223.560
G01 X256.417 Y236.787
G01 X250.000 Y250.000
G01 X243.455 Y263.141
G01 X236.868 Y276.155
G01 X230.329 Y288.987
G01 X223.923 Y301.587
G01 X217.737 Y313.906
G01 X211.852 Y325.898
G01 X206.349 Y337.522
G01 X201.301 Y348.739
G01 X196.779 Y359.513
G01 X192.847 Y369.814
G01 X189.561 Y379.614
G01 X186.973 Y388.890
G01 X185.125 Y397.621
G01 X184.052 Y405.791
G01 X183.779 Y413.389
G01 X184.325 Y420.405
G01 X185.697 Y426.835
G01 X187.895 Y432.675
G01 X190.910 Y437.927
G01 X194.721 Y442.594
G01 X199.303 Y446.684
G01 X204.618 Y450.204
G01 X210.623 Y453.165
G01 X217.266 Y455.579
G01 X224.486 Y457.460
G01 X232.219 Y458.824
G01 X240.392 Y459.687
G01 X248.928 Y460.064
G01 X257.746 Y459.973
G01 X266.760 Y459.430
G01 X275.882 Y458.454
G01 X285.021 Y457.059
G01 X294.089 Y455.263
G01 X302.992 Y453.081
G01 X311.642 Y450.527
G01 X319.949 Y447.615
G01 X327.830 Y444.357
G01 X335.201 Y440.764
G01 X341.985 Y436.848
G01 X348.112 Y432.616
G01 X353.514 Y428.077
G01 X358.133 Y423.238
G01 X361.917 Y418.105
G01 X364.822 Y412.682
G01 X366.813 Y406.974
G01 X367.863 Y400.985
G01 X367.956 Y394.716
G01 X367.083 Y388.172
G01 X365.246 Y381.355
G01 X362.455 Y374.267
G01 X358.732 Y366.912
G01 X354.107 Y359.292
G01 X348.618 Y351.413
G01 X342.313 Y343.279
G01 X335.248 Y334.896
G01 X327.487 Y326.272
G01 X319.101 Y317.415
G01 X310.166 Y308.336
G01 X300.766 Y299.046
G01 X290.989 Y289.561
G01 X280.928 Y279.895
G01 X270.677 Y270.066
G01 X260.335 Y260.093
G01 X250.000 Y250.000
G01 X239.772 Y239.809
G01 X229.750 Y229.546
G01 X220.031 Y219.239
G01 X210.709 Y208.917
G01 X201.877 Y198.611
G01 X193.622 Y188.353
G01 X186.024 Y178.178
G01 X179.160 Y168.120
G01 X173.098 Y158.215
G01 X167.901 Y148.499
G01 X163.622 Y139.009
G01 X160.304 Y129.782
G01 X157.985 Y120.854
G01 X156.691 Y112.262
G01 X156.437 Y104.041
G01 X157.230 Y96.224
G01 X159.067 Y88.846
G01 X161.934 Y81.937
G01 X165.808 Y75.526
G01 X170.655 Y69.640
G01 X176.434 Y64.304
G01 X183.092 Y59.540
G01 X190.570 Y55.367
G01 X198.798 Y51.800
G01 X207.703 Y48.853
G01 X217.201 Y46.534
G01 X227.204 Y44.850
G01 X237.619 Y43.802
G01 X248.350 Y43.390
G01 X259.294 Y43.609
G01 X270.350 Y44.451
G01 X281.413 Y45.903
G01 X292.379 Y47.952
G01 X303.142 Y50.578
G01 X313.601 Y53.761
G01 X323.656 Y57.477
G01 X333.210 Y61.699
G01 X342.171 Y66.399
G01 X350.453 Y71.545
G01 X357.973 Y77.104
G01 X364.659 Y83.044
G01 X370.444 Y89.328
G01 X375.269 Y95.921
G01 X379.085 Y102.786
G01 X381.850 Y109.886
G01 X383.534 Y117.186
G01 X384.115 Y124.649
G01 X383.581 Y132.240
G01 X381.931 Y139.927
G01 X379.172 Y147.676
G01 X375.323 Y155.457
G01 X370.412 Y163.242
G01 X364.476 Y171.004
G01 X357.560 Y178.720
G01 X349.721 Y186.368
G01 X341.019 Y193.929
G01 X331.526 Y201.388
G01 X321.318 Y208.732
G01 X310.477 Y215.950
G01 X299.093 Y223.036
G01 X287.256 Y229.984
G01 X275.062 Y236.794
G01 X262.610 Y243.464
G01 X250.000 Y250.000
G01 X237.332 Y256.406
G01 X224.706 Y262.688
G01 X212.221 Y268.858
G01 X199.975 Y274.924
G01 X188.061 Y280.899
G01 X176.570 Y286.795
G01 X165.587 Y292.626
G01 X155.194 Y298.404
G01 X145.464 Y304.143
G01 X136.464 Y309.856
G01 X128.255 Y315.554
G01 X120.891 Y321.248
G01 X114.415 Y326.948
G01 X108.863 Y332.661
G01 X104.263 Y338.392
G01 X100.633 Y344.145
G01 X97.984 Y349.921
G01 X96.314 Y355.717
G01 X95.618 Y361.529
G01 X95.877 Y367.348
G01 X97.067 Y373.164
G01 X99.155 Y378.962
G01 X102.100 Y384.725
G01 X105.855 Y390.433
G01 X110.366 Y396.062
G01 X115.573 Y401.585
G01 X121.411 Y406.974
G01 X127.810 Y412.196
G01 X134.698 Y417.218
G01 X141.999 Y422.004
G01 X149.634 Y426.515
G01 X157.524 Y430.713
G01 X165.590 Y434.558
G01 X173.752 Y438.008
G01 X181.932 Y441.024
G01 X190.053 Y443.564
G01 X198.043 Y445.590
G01 X205.832 Y447.062
G01 X213.353 Y447.944
G01 X220.546 Y448.202
G01 X227.354 Y447.803
G01 X233.729 Y446.720
G01 X239.627 Y444.925
G01 X245.011 Y442.399
G01 X249.851 Y439.124
G01 X254.125 Y435.087
G01 X257.817 Y430.282
G01 X260.921 Y424.704
G01 X263.435 Y418.359
G01 X265.366 Y411.253
G01 X266.730 Y403.401
G01 X267.546 Y394.824
G01 X267.844 Y385.546
G01 X267.656 Y375.600
G01 X267.024 Y365.023
G01 X265.991 Y353.856
G01 X264.607 Y342.149
G01 X262.928 Y329.952
G01 X261.009 Y317.325
G01 X258.912 Y304.328
G01 X256.699 Y291.026
G01 X254.433 Y277.490
G01 X252.178 Y263.790
G01 X250.000 Y250.000
G01 X247.961 Y236.197
G01 X246.123 Y222.457
G01 X244.545 Y208.858
G01 X243.284 Y195.478
G01 X242.393 Y182.393
G01 X241.920 Y169.678
G01 X241.910 Y157.408
G01 X242.400 Y145.652
G01 X243.424 Y134.478
G01 X245.009 Y123.951
G01 X247.174 Y114.128
G01 X249.932 Y105.065
G01 X253.291 Y96.811
G01 X257.249 Y89.408
G01 X261.800 Y82.894
G01 X266.928 Y77.298
G01 X272.611 Y72.644
G01 X278.822 Y68.949
G01 X285.525 Y66.221
G01 X292.678 Y64.462
G01 X300.236 Y63.667
G01 X308.144 Y63.823
G01 X316.346 Y64.909
G01 X324.779 Y66.899
G01 X333.378 Y69.759
G01 X342.073 Y73.449
G01 X350.794 Y77.922
G01 X359.466 Y83.126
G01 X368.014 Y89.004
G01 X376.365 Y95.494
G01 X384.442 Y102.531
G01 X392.171 Y110.044
G01 X399.481 Y117.963
G01 X406.300 Y126.213
G01 X412.563 Y134.719
G01 X418.204 Y143.403
G01 X423.165 Y152.190
G01 X427.391 Y161.005
G01 X430.833 Y169.772
G01 X433.446 Y178.421
G01 X435.194 Y186.882
G01 X436.045 Y195.090
G01 X435.974 Y202.982
G01 X434.965 Y210.502
G01 X433.006 Y217.598
G01 X430.094 Y224.224
G01 X426.234 Y230.340
G01 X421.436 Y235.911
G01 X415.719 Y240.911
G01 X409.108 Y245.320
G01 X401.634 Y249.125
G01 X393.335 Y252.319
G01 X384.256 Y254.904
G01 X374.445 Y256.887
G01 X363.958 Y258.284
G01 X352.853 Y259.117
G01 X341.195 Y259.414
G01 X329.050 Y259.208
G01 X316.488 Y258.541
G01 X303.581 Y257.456
G01 X290.403 Y256.005
G01 X277.030 Y254.239
G01 X263.537 Y252.218
G01 X250.000 Y250.000
G01 X236.493 Y247.648
G01 X223.090 Y245.226
G01 X209.862 Y242.797
G01 X196.878 Y240.426
G01 X184.205 Y238.177
G01 X171.905 Y236.110
G01 X160.036 Y234.287
G01 X148.655 Y232.762
G01 X137.809 Y231.590
G01 X127.545 Y230.820
G01 X117.902 Y230.495
G01 X108.915 Y230.653
G01 X100.612 Y231.329
G01 X93.018 Y232.548
G01 X86.150 Y234.332
G01 X80.021 Y236.691
G01 X74.638 Y239.634
G01 X70.003 Y243.158
G01 X66.111 Y247.256
G01 X62.956 Y251.911
G01 X60.523 Y257.100
G01 X58.795 Y262.794
G01 X57.751 Y268.956
G01 X57.366 Y275.541
G01 X57.612 Y282.502
G01 X58.458 Y289.782
G01 X59.870 Y297.322
G01 X61.812 Y305.057
G01 X64.248 Y312.919
G01 X67.141 Y320.836
G01 X70.450 Y328.733
G01 X74.137 Y336.535
G01 X78.165 Y344.164
G01 X82.494 Y351.544
G01 X87.087 Y358.597
G01 X91.910 Y365.249
G01 X96.928 Y371.426
G01 X102.109 Y377.058
G01 X107.423 Y382.079
G01 X112.843 Y386.428
G01 X118.345 Y390.046
G01 X123.906 Y392.884
G01 X129.508 Y394.897
G01 X135.133 Y396.046
G01 X140.771 Y396.302
G01 X146.409 Y395.642
G01 X152.040 Y394.051
G01 X157.661 Y391.523
G01 X163.269 Y388.060
G01 X168.864 Y383.674
G01 X174.450 Y378.382
G01 X180.031 Y372.213
G01 X185.614 Y365.203
G01 X191.207 Y357.396
G01 X196.820 Y348.843
G01 X202.463 Y339.604
G01 X208.147 Y329.744
G01 X213.883 Y319.335
G01 X219.683 Y308.455
G01 X225.558 Y297.186
G01 X231.518 Y285.615
G01 X237.573 Y273.831
G01 X243.731 Y261.928
G01 X250.000 Y250.000
G01 X256.384 Y238.142
G01 X262.887 Y226.449
G01 X269.510 Y215.015
G01 X276.252 Y203.934
G01 X283.110 Y193.294
G01 X290.077 Y183.183
G01 X297.147 Y173.683
G01 X304.306 Y164.869
G01 X311.543 Y156.814
G01 X318.841 Y149.583
G01 X326.180 Y143.232
G01 X333.541 Y137.811
G01 X340.900 Y133.362
G01 X348.232 Y129.918
G01 X355.510 Y127.503
G01 X362.704 Y126.132
G01 X369.784 Y125.810
G01 X376.720 Y126.534
G01 X383.478 Y128.290
G01 X390.026 Y131.056
G01 X396.330 Y134.801
G01 X402.358 Y139.483
G01 X408.076 Y145.055
G01 X413.451 Y151.459
G01 X418.453 Y158.632
G01 X423.051 Y166.502
G01 X427.217 Y174.992
G01 X430.924 Y184.020
G01 X434.146 Y193.498
G01 X436.862 Y203.336
G01 X439.051 Y213.438
G01 X440.696 Y223.708
G01 X441.783 Y234.050
G01 X442.299 Y244.365
G01 X442.237 Y254.556
G01 X441.592 Y264.527
G01 X440.361 Y274.185
G01 X438.546 Y283.441
G01 X436.151 Y292.208
G01 X433.184 Y300.405
G01 X429.655 Y307.957
G01 X425.579 Y314.796
G01 X420.972 Y320.860
G01 X415.853 Y326.094
G01 X410.245 Y330.453
G01 X404.171 Y333.899
G01 X397.657 Y336.403
G01 X390.732 Y337.946
G01 X383.426 Y338.517
G01 X375.769 Y338.114
G01 X367.793 Y336.747
G01 X359.531 Y334.432
G01 X351.017 Y331.196
G01 X342.284 Y327.073
G01 X333.366 Y322.107
G01 X324.297 Y316.348
G01 X315.108 Y309.856
G01 X305.832 Y302.695
G01 X296.500 Y294.936
G01 X287.142 Y286.656
G01 X277.787 Y277.936
G01 X268.462 Y268.861
G01 X259.191 Y259.519
G01 X250.000 Y250.000
G01 X240.910 Y240.395
G01 X231.940 Y230.795
G01 X223.110 Y221.292
G01 X214.436 Y211.974
G01 X205.932 Y202.930
G01 X197.612 Y194.242
G01 X189.485 Y185.991
G01 X181.563 Y178.252
G01 X173.852 Y171.095
G01 X166.359 Y164.583
G01 X159.091 Y158.774
G01 X152.050 Y153.718
G01 X145.241 Y149.456
G01 X138.667 Y146.023
G01 X132.330 Y143.444
G01 X126.232 Y141.737
G01 X120.374 Y140.911
G01 X114.760 Y140.966
G01 X109.391 Y141.893
G01 X104.269 Y143.674
G01 X99.398 Y146.286
G01 X94.782 Y149.693
G01 X90.426 Y153.857
G01 X86.335 Y158.728
G01 X82.515 Y164.253
G01 X78.975 Y170.370
G01 X75.723 Y177.014
G01 X72.768 Y184.115
G01 X70.123 Y191.598
G01 X67.799 Y199.387
G01 X65.808 Y207.400
G01 X64.165 Y215.557
G01 X62.884 Y223.777
G01 X61.980 Y231.977
G01 X61.469 Y240.078
G01 X61.366 Y247.999
G01 X61.688 Y255.666
G01 X62.450 Y263.006
G01 X63.666 Y269.950
G01 X65.353 Y276.435
G01 X67.523 Y282.402
G01 X70.189 Y287.800
G01 X73.361 Y292.583
G01 X77.050 Y296.713
G01 X81.262 Y300.158
G01 X86.002 Y302.896
G01 X91.274 Y304.911
G01 X97.077 Y306.195
G01 X103.409 Y306.748
G01 X110.263 Y306.581
G01 X117.631 Y305.708
G01 X125.501 Y304.155
G01 X133.856 Y301.952
G01 X142.679 Y299.140
G01 X151.946 Y295.762
G01 X161.632 Y291.871
G01 X171.707 Y287.524
G01 X182.138 Y282.784
G01 X192.890 Y277.715
G01 X203.924 Y272.389
G01 X215.197 Y266.879
G01 X226.666 Y261.260
G01 X238.283 Y255.608
G01 X250.000 Y250.000
G01 X261.765 Y244.513
G01 X273.527 Y239.222
G01 X285.232 Y234.201
G01 X296.826 Y229.521
G01 X308.254 Y225.249
G01 X319.463 Y221.448
G01 X330.399 Y218.179
G01 X341.008 Y215.492
G01 X351.239 Y213.436
G01 X361.043 Y212.052
G01 X370.373 Y211.372
G01 X379.182 Y211.423
G01 X387.430 Y212.224
G01 X395.078 Y213.787
G01 X402.092 Y216.113
G01 X408.439 Y219.197
G01 X414.094 Y223.027
G01 X419.035 Y227.582
G01 X423.244 Y232.831
G01 X426.708 Y238.740
G01 X429.421 Y245.265
G01 X431.380 Y252.355
G01 X432.587 Y259.953
G01 X433.050 Y267.997
G01 X432.782 Y276.420
G01 X431.801 Y285.149
G01 X430.128 Y294.108
G01 X427.790 Y303.218
G01 X424.820 Y312.396
G01 X421.251 Y321.560
G01 X417.122 Y330.625
G01 X412.477 Y339.507
G01 X407.359 Y348.122
G01 X401.816 Y356.388
G01 X395.898 Y364.225
G01 X389.656 Y371.555
G01 X383.141 Y378.307
G01 X376.408 Y384.411
G01 X369.508 Y389.803
G01 X362.494 Y394.426
G01 X355.418 Y398.227
G01 X348.330 Y401.161
G01 X341.278 Y403.191
G01 X334.309 Y404.286
G01 X327.465 Y404.422
G01 X320.788 Y403.585
G01 X314.314 Y401.767
G01 X308.075 Y398.970
G01 X302.102 Y395.202
G01 X296.418 Y390.481
G01 X291.044 Y384.831
G01 X285.994 Y378.285
G01 X281.281 Y370.881
G01 X276.909 Y362.667
G01 X272.879 Y353.696
G01 X269.189 Y344.025
G01 X265.829 Y333.718
G01 X262.787 Y322.846
G01 X260.046 Y311.480
G01 X257.585 Y299.696
G01 X255.379 Y287.575
G01 X253.401 Y275.196
G01 X251.619 Y262.644
G01 X250.000 Y250.000
G01 X248.509 Y237.348
G01 X247.108 Y224.771
G01 X245.759 Y212.348
G01 X244.424 Y200.159
G01 X243.063 Y188.279
G01 X241.638 Y176.780
G01 X240.112 Y165.731
G01 X238.448 Y155.194
G01 X236.613 Y145.229
G01 X234.576 Y135.889
G01 X232.306 Y127.220
G01 X229.780 Y119.264
G01 X226.975 Y112.055
G01 X223.875 Y105.621
G01 X220.466 Y99.984
G01 X216.739 Y95.158
G01 X212.692 Y91.150
G01 X208.326 Y87.962
G01 X203.647 Y85.589
G01 X198.667 Y84.019
G01 X193.403 Y83.234
G01 X187.878 Y83.210
G01 X182.119 Y83.920
G01 X176.157 Y85.328
G01 X170.029 Y87.397
G01 X163.775 Y90.085
G01 X157.441 Y93.345
G01 X151.075 Y97.130
G01 X144.727 Y101.387
G01 X138.451 Y106.064
G01 X132.304 Y111.107
G01 X126.342 Y116.461
G01 X120.624 Y122.072
G01 X115.208 Y127.884
G01 X110.154 Y133.845
G01 X105.517 Y139.903
G01 X101.355 Y146.009
G01 X97.721 Y152.115
G01 X94.667 Y158.177
G01 X92.239 Y164.155
G01 X90.482 Y170.011
G01 X89.436 Y175.713
G01 X89.134 Y181.232
G01 X89.607 Y186.543
G01 X90.878 Y191.628
G01 X92.964 Y196.469
G01 X95.876 Y201.058
G01 X99.619 Y205.389
G01 X104.189 Y209.460
G01 X109.578 Y213.275
G01 X115.770 Y216.841
G01 X122.739 Y220.170
G01 X130.458 Y223.278
G01 X138.888 Y226.183
G01 X147.985 Y228.908
G01 X157.701 Y231.478
G01 X167.979 Y233.919
G01 X178.759 Y236.262
G01 X189.975 Y238.536
G01 X201.556 Y240.773
G01 X213.427 Y243.006
G01 X225.512 Y245.267
G01 X237.731 Y247.588
G01 X250.000 Y250.000
G01 X262.237 Y252.533
G01 X274.358 Y255.216
G01 X286.280 Y258.074
G01 X297.920 Y261.132
G01 X309.197 Y264.409
G01 X320.032 Y267.924
G01 X330.352 Y271.690
G01 X340.084 Y275.720
G01 X349.161 Y280.018
G01 X357.522 Y284.589
G01 X365.112 Y289.430
G01 X371.879 Y294.537
G01 X377.782 Y299.899
G01 X382.784 Y305.503
G01 X386.856 Y311.331
G01 X389.979 Y317.361
G01 X392.138 Y323.569
G01 X393.329 Y329.924
G01 X393.556 Y336.395
G01 X392.829 Y342.946
G01 X391.168 Y349.540
G01 X388.600 Y356.136
G01 X385.160 Y362.692
G01 X380.889 Y369.164
G01 X375.837 Y375.507
G01 X370.058 Y381.676
G01 X363.613 Y387.625
G01 X356.570 Y393.308
G01 X348.998 Y398.679
G01 X340.973 Y403.695
G01 X332.574 Y408.313
G01 X323.881 Y412.493
G01 X314.977 Y416.194
G01 X305.947 Y419.382
G01 X296.874 Y422.023
G01 X287.842 Y424.087
G01 X278.934 Y425.547
G01 X270.229 Y426.382
G01 X261.805 Y426.572
G01 X253.736 Y426.103
G01 X246.091 Y424.965
G01 X238.936 Y423.151
G01 X232.329 Y420.660
G01 X226.323 Y417.495
G01 X220.966 Y413.663
G01 X216.297 Y409.176
G01 X212.349 Y404.050
G01 X209.145 Y398.303
G01 X206.704 Y391.961
G01 X205.035 Y385.049
G01 X204.138 Y377.600
G01 X204.008 Y369.646
G01 X204.629 Y361.224
G01 X205.980 Y352.373
G01 X208.030 Y343.135
G01 X210.744 Y333.553
G01 X214.078 Y323.672
G01 X217.983 Y313.536
G01 X222.404 Y303.193
G01 X227.280 Y292.689
G01 X232.548 Y282.072
G01 X238.138 Y271.388
G01 X243.980 Y260.682
G01 X250.000 Y250.000
G01 X256.123 Y239.385
G01 X262.272 Y228.880
G01 X268.373 Y218.525
G01 X274.350 Y208.357
G01 X280.129 Y198.414
G01 X285.639 Y188.728
G01 X290.813 Y179.330
G01 X295.586 Y170.250
G01 X299.899 Y161.512
G01 X303.695 Y153.139
G01 X306.928 Y145.151
G01 X309.552 Y137.565
G01 X311.532 Y130.395
G01 X312.839 Y123.653
G01 X313.449 Y117.348
G01 X313.349 Y111.487
G01 X312.531 Y106.072
G01 X310.995 Y101.106
G01 X308.750 Y96.589
G01 X305.812 Y92.518
G01 X302.205 Y88.890
G01 X297.958 Y85.698
G01 X293.109 Y82.937
G01 X287.702 Y80.599
G01 X281.788 Y78.674
G01 X275.421 Y77.155
G01 X268.664 Y76.031
G01 X261.581 Y75.292
G01 X254.240 Y74.928
G01 X246.714 Y74.930
G01 X239.077 Y75.287
G01 X231.404 Y75.991
G01 X223.772 Y77.032
G01 X216.257 Y78.404
G01 X208.936 Y80.097
G01 X201.881 Y82.105
G01 X195.165 Y84.422
G01 X188.856 Y87.043
G01 X183.019 Y89.963
G01 X177.713 Y93.178
G01 X172.995 Y96.685
G01 X168.913 Y100.481
G01 X165.511 Y104.564
G01 X162.824 Y108.931
G01 X160.884 Y113.582
G01 X159.711 Y118.514
G01 X159.320 Y123.726
G01 X159.718 Y129.216
G01 X160.903 Y134.981
G01 X162.866 Y141.019
G01 X165.590 Y147.326
G01 X169.051 Y153.897
G01 X173.215 Y160.728
G01 X178.044 Y167.811
G01 X183.491 Y175.139
G01 X189.504 Y182.702
G01 X196.024 Y190.488
G01 X202.987 Y198.487
G01 X210.325 Y206.683
G01 X217.966 Y215.060
G01 X225.832 Y223.601
G01 X233.847 Y232.286
G01 X241.930 Y241.093
G01 X250.000 Y250.000
G01 X257.975 Y258.981
G01 X265.775 Y268.011
G01 X273.320 Y277.061
G01 X280.533 Y286.103
G01 X287.340 Y295.105
G01 X293.671 Y304.036
G01 X299.459 Y312.865
G01 X304.643 Y321.559
G01 X309.168 Y330.084
G01 X312.985 Y338.407
G01 X316.051 Y346.495
G01 X318.332 Y354.316
G01 X319.800 Y361.836
G01 X320.434 Y369.025
G01 X320.224 Y375.853
G01 X319.166 Y382.291
G01 X317.264 Y388.312
G01 X314.531 Y393.891
G01 X310.989 Y399.005
G01 X306.666 Y403.633
G01 X301.599 Y407.758
G01 X295.832 Y411.363
G01 X289.416 Y414.436
G01 X282.409 Y416.967
G01 X274.874 Y418.951
G01 X266.879 Y420.383
G01 X258.498 Y421.263
G01 X249.809 Y421.594
G01 X240.891 Y421.382
G01 X231.829 Y420.637
G01 X222.707 Y419.369
G01 X213.612 Y417.595
G01 X204.628 Y415.332
G01 X195.842 Y412.601
G01 X187.338 Y409.423
G01 X179.196 Y405.825
G01 X171.496 Y401.834
G01 X164.313 Y397.477
G01 X157.716 Y392.785
G01 X151.771 Y387.789
G01 X146.538 Y382.522
G01 X142.069 Y377.015
G01 X138.412 Y371.302
G01 X135.605 Y365.415
G01 X133.680 Y359.387
G01 X132.661 Y353.249
G01 X132.564 Y347.032
G01 X133.398 Y340.766
G01 X135.160 Y334.479
G01 X137.843 Y328.197
G01 X141.431 Y321.944
G01 X145.898 Y315.742
G01 X151.212 Y309.612
G01 X157.334 Y303.571
G01 X164.217 Y297.633
G01 X171.808 Y291.811
G01 X180.049 Y286.115
G01 X188.875 Y280.550
G01 X198.217 Y275.122
G01 X208.001 Y269.833
G01 X218.152 Y264.680
G01 X228.590 Y259.661
G01 X239.233 Y254.770
G01 X250.000 Y250.000
G01 X260.807 Y245.341
G01 X271.571 Y240.781
G01 X282.212 Y236.309
G01 X292.649 Y231.911
G01 X302.805 Y227.572
G01 X312.606 Y223.277
G01 X321.982 Y219.011
G01 X330.867 Y214.759
G01 X339.201 Y210.506
G01 X346.929 Y206.239
G01 X354.000 Y201.944
G01 X360.372 Y197.611
G01 X366.010 Y193.228
G01 X370.883 Y188.788
G01 X374.969 Y184.285
G01 X378.254 Y179.716
G01 X380.730 Y175.078
G01 X382.396 Y170.375
G01 X383.258 Y165.611
G01 X383.330 Y160.792
G01 X382.633 Y155.930
G01 X381.193 Y151.038
G01 X379.043 Y146.131
G01 X376.221 Y141.230
G01 X372.771 Y136.357
G01 X368.741 Y131.536
G01 X364.183 Y126.795
G01 X359.153 Y122.164
G01 X353.710 Y117.674
G01 X347.915 Y113.359
G01 X341.830 Y109.254
G01 X335.519 Y105.395
G01 X329.046 Y101.820
G01 X322.475 Y98.567
G01 X315.867 Y95.671
G01 X309.285 Y93.172
G01 X302.785 Y91.104
G01 X296.425 Y89.504
G01 X290.257 Y88.405
G01 X284.329 Y87.838
G01 X278.685 Y87.832
G01 X273.366 Y88.414
G01 X268.405 Y89.607
G01 X263.832 Y91.429
G01 X259.671 Y93.897
G01 X255.939 Y97.022
G01 X252.649 Y100.811
G01 X249.806 Y105.266
G01 X247.411 Y110.384
G01 X245.458 Y116.158
G01 X243.937 Y122.576
G01 X242.831 Y129.619
G01 X242.118 Y137.265
G01 X241.771 Y145.487
G01 X241.760 Y154.251
G01 X242.049 Y163.520
G01 X242.600 Y173.252
G01 X243.370 Y183.401
G01 X244.316 Y193.916
G01 X245.390 Y204.745
G01 X246.545 Y215.828
G01 X247.731 Y227.107
G01 X248.899 Y238.519
G01 X250.000 Y250.000
G01 X250.985 Y261.484
G01 X251.808 Y272.903
G01 X252.423 Y284.192
G01 X252.787 Y295.284
G01 X252.862 Y306.113
G01 X252.610 Y316.613
G01 X252.000 Y326.724
G01 X251.003 Y336.383
G01 X249.596 Y345.535
G01 X247.760 Y354.125
G01 X245.481 Y362.104
G01 X242.752 Y369.426
G01 X239.569 Y376.051
G01 X235.935 Y381.944
G01 X231.859 Y387.074
G01 X227.353 Y391.417
G01 X222.439 Y394.956
G01 X217.138 Y397.679
G01 X211.482 Y399.579
G01 X205.504 Y400.659
G01 X199.243 Y400.924
G01 X192.741 Y400.389
G01 X186.045 Y399.072
G01 X179.205 Y397.000
G01 X172.274 Y394.204
G01 X165.305 Y390.720
G01 X158.356 Y386.590
G01 X151.484 Y381.862
G01 X144.749 Y376.585
G01 X138.208 Y370.815
G01 X131.921 Y364.610
G01 X125.945 Y358.030
G01 X120.335 Y351.139
G01 X115.146 Y344.000
G01 X110.429 Y336.681
G01 X106.232 Y329.246
G01 X102.601 Y321.762
G01 X99.576 Y314.293
G01 X97.194 Y306.903
G01 X95.489 Y299.653
G01 X94.486 Y292.603
G01 X94.208 Y285.806
G01 X94.672 Y279.317
G01 X95.890 Y273.181
G01 X97.867 Y267.442
G01 X100.603 Y262.139
G01 X104.094 Y257.303
G01 X108.328 Y252.963
G01 X113.288 Y249.139
G01 X118.953 Y245.847
G01 X125.297 Y243.095
G01 X132.287 Y240.887
G01 X139.887 Y239.219
G01 X148.057 Y238.083
G01 X156.753 Y237.462
G01 X165.927 Y237.337
G01 X175.528 Y237.680
G01 X185.502 Y238.460
G01 X195.795 Y239.640
G01 X206.349 Y241.181
G01 X217.105 Y243.036
G01 X228.006 Y245.159
G01 X238.990 Y247.498
G01 X250.000 Y250.000
G01 X260.977 Y252.610
G01 X271.864 Y255.273
G01 X282.605 Y257.932
G01 X293.147 Y260.531
G01 X303.439 Y263.014
G01 X313.433 Y265.328
G01 X323.083 Y267.421
G01 X332.347 Y269.243
G01 X341.188 Y270.749
G01 X349.571 Y271.896
G01 X357.465 Y272.645
G01 X364.844 Y272.965
G01 X371.686 Y272.826
G01 X377.973 Y272.205
G01 X383.691 Y271.085
G01 X388.831 Y269.454
G01 X393.388 Y267.308
G01 X397.360 Y264.648
G01 X400.750 Y261.480
G01 X403.564 Y257.819
G01 X405.812 Y253.683
G01 X407.505 Y249.098
G01 X408.661 Y244.096
G01 X409.298 Y238.713
G01 X409.436 Y232.993
G01 X409.098 Y226.980
G01 X408.308 Y220.726
G01 X407.094 Y214.287
G01 X405.481 Y207.720
G01 X403.497 Y201.086
G01 X401.170 Y194.447
G01 X398.529 Y187.869
G01 X395.600 Y181.416
G01 X392.413 Y175.153
G01 X388.992 Y169.146
G01 X385.364 Y163.457
G01 X381.553 Y158.147
G01 X377.581 Y153.277
G01 X373.469 Y148.902
G01 X369.238 Y145.073
G01 X364.904 Y141.838
G01 X360.482 Y139.241
G01 X355.986 Y137.318
G01 X351.428 Y136.101
G01 X346.817 Y135.616
G01 X342.159 Y135.881
G01 X337.461 Y136.909
G01 X332.725 Y138.705
G01 X327.953 Y141.267
G01 X323.146 Y144.586
G01 X318.302 Y148.646
G01 X313.419 Y153.425
G01 X308.492 Y158.891
G01 X303.518 Y165.009
G01 X298.491 Y171.736
G01 X293.405 Y179.022
G01 X288.256 Y186.813
G01 X283.037 Y195.051
G01 X277.742 Y203.670
G01 X272.368 Y212.602
G01 X266.909 Y221.776
G01 X261.363 Y231.119
G01 X255.727 Y240.552
G01 X250.000 Y250.000
G01 X244.183 Y259.383
G01 X238.278 Y268.625
G01 X232.288 Y277.646
G01 X226.219 Y286.373
G01 X220.078 Y294.731
G01 X213.874 Y302.650
G01 X207.619 Y310.064
G01 X201.325 Y316.910
G01 X195.007 Y323.132
G01 X188.681 Y328.676
G01 X182.365 Y333.498
G01 X176.079 Y337.557
G01 X169.844 Y340.821
G01 X163.683 Y343.264
G01 X157.618 Y344.869
G01 X151.674 Y345.624
G01 X145.876 Y345.527
G01 X140.250 Y344.583
G01 X134.821 Y342.804
G01 X129.615 Y340.210
G01 X124.658 Y336.829
G01 X119.974 Y332.696
G01 X115.589 Y327.852
G01 X111.525 Y322.346
G01 X107.805 Y316.231
G01 X104.451 Y309.568
G01 X101.481 Y302.420
G01 X98.914 Y294.857
G01 X96.765 Y286.952
G01 X95.048 Y278.779
G01 X93.774 Y270.417
G01 X92.954 Y261.946
G01 X92.593 Y253.446
G01 X92.696 Y244.997
G01 X93.266 Y236.680
G01 X94.300 Y228.572
G01 X95.797 Y220.750
G01 X97.751 Y213.287
G01 X100.154 Y206.252
G01 X102.994 Y199.712
G01 X106.260 Y193.727
G01 X109.938 Y188.353
G01 X114.009 Y183.638
G01 X118.456 Y179.626
G01 X123.258 Y176.354
G01 X128.394 Y173.850
G01 X133.841 Y172.137
G01 X139.575 Y171.229
G01 X145.571 Y171.133
G01 X151.804 Y171.848
G01 X158.248 Y173.366
G01 X164.876 Y175.671
G01 X171.664 Y178.740
G01 X178.585 Y182.543
G01 X185.614 Y187.042
G01 X192.727 Y192.194
G01 X199.899 Y197.949
G01 X207.108 Y204.254
G01 X214.331 Y211.047
G01 X221.549 Y218.266
G01 X228.742 Y225.843
G01 X235.892 Y233.706
G01 X242.983 Y241.783
G01 X250.000 Y250.000
G01 X256.929 Y258.281
G01 X263.759 Y266.550
G01 X270.480 Y274.733
G01 X277.082 Y282.755
G01 X283.558 Y290.546
G01 X289.901 Y298.035
G01 X296.107 Y305.159
G01 X302.172 Y311.854
G01 X308.093 Y318.063
G01 X313.867 Y323.736
G01 X319.494 Y328.824
G01 X324.971 Y333.287
G01 X330.298 Y337.091
G01 X335.475 Y340.209
G01 X340.501 Y342.618
G01 X345.375 Y344.305
G01 X350.096 Y345.263
G01 X354.662 Y345.492
G01 X359.072 Y344.998
G01 X363.322 Y343.797
G01 X367.409 Y341.908
G01 X371.328 Y339.358
G01 X375.072 Y336.181
G01 X378.636 Y332.415
G01 X382.010 Y328.105
G01 X385.186 Y323.299
G01 X388.154 Y318.050
G01 X390.901 Y312.416
G01 X393.416 Y306.456
G01 X395.685 Y300.233
G01 X397.693 Y293.812
G01 X399.426 Y287.256
G01 X400.866 Y280.633
G01 X401.999 Y274.007
G01 X402.808 Y267.445
G01 X403.275 Y261.008
G01 X403.385 Y254.757
G01 X403.120 Y248.752
G01 X402.466 Y243.047
G01 X401.407 Y237.692
G01 X399.930 Y232.735
G01 X398.022 Y228.216
G01 X395.672 Y224.173
G01 X392.870 Y220.635
G01 X389.609 Y217.628
G01 X385.884 Y215.170
G01 X381.692 Y213.273
G01 X377.032 Y211.944
G01 X371.908 Y211.182
G01 X366.323 Y210.981
G01 X360.287 Y211.326
G01 X353.811 Y212.199
G01 X346.908 Y213.575
G01 X339.597 Y215.424
G01 X331.898 Y217.709
G01 X323.835 Y220.389
G01 X315.434 Y223.420
G01 X306.725 Y226.753
G01 X297.740 Y230.335
G01 X288.516 Y234.112
G01 X279.089 Y238.026
G01 X269.499 Y242.019
G01 X259.788 Y246.030
G01 X250.000 Y250.000
G01 X240.180 Y253.869
G01 X230.374 Y257.578
G01 X220.628 Y261.071
G01 X210.992 Y264.292
G01 X201.510 Y267.190
G01 X192.232 Y269.716
G01 X183.203 Y271.824
G01 X174.469 Y273.475
G01 X166.074 Y274.634
G01 X158.059 Y275.269
G01 X150.466 Y275.356
G01 X143.331 Y274.875
G01 X136.690 Y273.815
G01 X130.574 Y272.167
G01 X125.012 Y269.932
G01 X120.028 Y267.116
G01 X115.642 Y263.729
G01 X111.872 Y259.792
G01 X108.730 Y255.327
G01 X106.225 Y250.366
G01 X104.359 Y244.944
G01 X103.133 Y239.102
G01 X102.542 Y232.886
G01 X102.575 Y226.346
G01 X103.220 Y219.537
G01 X104.458 Y212.516
G01 X106.267 Y205.344
G01 X108.621 Y198.084
G01 X111.492 Y190.800
G01 X114.846 Y183.559
G01 X118.647 Y176.426
G01 X122.858 Y169.469
G01 X126.571 Y163.983
G01 X130.493 Y158.713
G01 X134.589 Y153.716
G01 X138.826 Y149.044
G01 X143.173 Y144.751
G01 X147.598 Y140.889
G01 X152.074 Y137.504
G01 X156.575 Y134.641
G01 X161.078 Y132.343
G01 X165.560 Y130.645
G01 X170.005 Y129.581
G01 X174.397 Y129.177
G01 X178.724 Y129.455
G01 X182.975 Y130.432
G01 X187.144 Y132.118
G01 X191.227 Y134.517
G01 X195.222 Y137.627
G01 X199.132 Y141.440
G01 X202.959 Y145.941
G01 X206.710 Y151.110
G01 X210.393 Y156.919
G01 X214.017 Y163.336
G01 X217.595 Y170.320
G01 X221.138 Y177.830
G01 X224.661 Y185.814
G01 X228.179 Y194.219
G01 X231.706 Y202.987
G01 X235.257 Y212.056
G01 X238.847 Y221.361
G01 X242.492 Y230.833
G01 X246.206 Y240.403
G01 X250.000 Y250.000
G01 X253.887 Y259.551
G01 X257.878 Y268.985
G01 X261.981 Y278.229
G01 X266.202 Y287.214
G01 X270.548 Y295.870
G01 X275.019 Y304.131
G01 X279.617 Y311.935
G01 X284.339 Y319.222
G01 X289.181 Y325.937
G01 X294.136 Y332.030
G01 X299.195 Y337.455
G01 X304.345 Y342.174
G01 X309.572 Y346.152
G01 X314.860 Y349.364
G01 X320.190 Y351.788
G01 X325.541 Y353.411
G01 X330.891 Y354.226
G01 X336.216 Y354.235
G01 X341.489 Y353.445
G01 X346.684 Y351.869
G01 X351.774 Y349.531
G01 X356.729 Y346.458
G01 X361.520 Y342.684
G01 X366.119 Y338.250
G01 X370.496 Y333.203
G01 X374.622 Y327.593
G01 X378.471 Y321.478
G01 X382.013 Y314.919
G01 X385.225 Y307.979
G01 X388.080 Y300.726
G01 X390.557 Y293.230
G01 X392.633 Y285.563
G01 X394.292 Y277.797
G01 X395.515 Y270.007
G01 X396.289 Y262.265
G01 X396.601 Y254.643
G01 X396.444 Y247.212
G01 X395.810 Y240.040
G01 X394.697 Y233.194
G01 X393.103 Y226.733
G01 X391.031 Y220.717
G01 X388.486 Y215.199
G01 X385.475 Y210.226
G01 X382.008 Y205.841
G01 X378.099 Y202.081
G01 X373.764 Y198.976
G01 X369.018 Y196.550
G01 X363.884 Y194.819
G01 X358.381 Y193.795
G01 X352.534 Y193.479
G01 X346.368 Y193.869
G01 X339.909 Y194.954
G01 X333.184 Y196.716
G01 X326.223 Y199.132
G01 X319.053 Y202.171
G01 X311.706 Y205.798
G01 X304.209 Y209.970
G01 X296.593 Y214.641
G01 X288.888 Y219.760
G01 X281.121 Y225.269
G01 X273.323 Y231.112
G01 X265.519 Y237.224
G01 X257.736 Y243.542
G01 X250.000 Y250.000
G01 X242.335 Y256.530
G01 X234.763 Y263.064
G01 X227.306 Y269.536
G01 X219.984 Y275.878
G01 X212.814 Y282.027
G01 X205.813 Y287.920
G01 X198.996 Y293.496
G01 X192.376 Y298.702
G01 X185.964 Y303.483
G01 X179.772 Y307.793
G01 X173.807 Y311.589
G01 X168.078 Y314.833
G01 X162.589 Y317.496
G01 X157.346 Y319.550
G01 X152.353 Y320.977
G01 X147.613 Y321.764
G01 X143.127 Y321.905
G01 X138.898 Y321.399
G01 X134.925 Y320.255
G01 X131.210 Y318.485
G01 X127.753 Y316.109
G01 X124.554 Y313.153
G01 X121.613 Y309.647
G01 X118.931 Y305.628
G01 X116.507 Y301.139
G01 X114.343 Y296.226
G01 X112.440 Y290.939
G01 X110.800 Y285.333
G01 X109.424 Y279.463
G01 X108.315 Y273.391
G01 X107.477 Y267.178
G01 X106.913 Y260.884
G01 X106.628 Y254.575
G01 X106.626 Y248.312
G01 X106.912 Y242.157
G01 X107.492 Y236.172
G01 X108.371 Y230.414
G01 X109.556 Y224.940
G01 X111.051 Y219.803
G01 X112.863 Y215.051
G01 X114.998 Y210.730
G01 X117.459 Y206.879
G01 X120.253 Y203.534
G01 X123.381 Y200.724
G01 X126.849 Y198.472
G01 X130.657 Y196.798
G01 X134.805 Y195.713
G01 X139.294 Y195.221
G01 X144.122 Y195.323
G01 X149.284 Y196.011
G01 X154.775 Y197.272
G01 X160.587 Y199.086
G01 X166.712 Y201.429
G01 X173.138 Y204.268
G01 X179.852 Y207.569
G01 X186.838 Y211.290
G01 X194.079 Y215.385
G01 X201.555 Y219.805
G01 X209.245 Y224.497
G01 X217.124 Y229.404
G01 X225.168 Y234.469
G01 X233.348 Y239.631
G01 X241.635 Y244.828
G01 X250.000 Y250.000
G01 X258.409 Y255.084
G01 X266.831 Y260.018
G01 X275.229 Y264.745
G01 X283.570 Y269.204
G01 X291.818 Y273.343
G01 X299.938 Y277.108
G01 X307.893 Y280.451
G01 X315.649 Y283.328
G01 X323.171 Y285.700
G01 X330.424 Y287.532
G01 X337.375 Y288.796
G01 X343.995 Y289.467
G01 X350.251 Y289.529
G01 X356.117 Y288.970
G01 X361.566 Y287.787
G01 X366.575 Y285.979
G01 X371.124 Y283.555
G01 X375.194 Y280.530
G01 X378.769 Y276.924
G01 X381.838 Y272.763
G01 X384.391 Y268.079
G01 X386.423 Y262.911
G01 X387.932 Y257.301
G01 X388.917 Y251.297
G01 X389.384 Y244.950
G01 X389.340 Y238.318
G01 X388.796 Y231.458
G01 X387.765 Y224.432
G01 X386.264 Y217.305
G01 X384.314 Y210.142
G01 X381.936 Y203.009
G01 X379.155 Y195.973
G01 X375.999 Y189.101
G01 X372.497 Y182.457
G01 X368.679 Y176.107
G01 X364.578 Y170.111
G01 X360.227 Y164.528
G01 X355.660 Y159.415
G01 X350.911 Y154.822
G01 X346.016 Y150.799
G01 X341.009 Y147.387
G01 X335.923 Y144.624
G01 X330.793 Y142.543
G01 X325.650 Y141.170
G01 X320.525 Y140.526
G01 X315.447 Y140.625
G01 X310.443 Y141.475
G01 X305.537 Y143.077
G01 X300.753 Y145.428
G01 X296.109 Y148.516
G01 X291.623 Y152.324
G01 X287.309 Y156.829
G01 X283.179 Y162.002
G01 X279.239 Y167.808
G01 X275.495 Y174.208
G01 X271.950 Y181.158
G01 X268.601 Y188.608
G01 X265.446 Y196.507
G01 X262.476 Y204.798
G01 X259.683 Y213.422
G01 X257.055 Y222.318
G01 X254.576 Y231.422
G01 X252.230 Y240.671
G01 X250.000 Y250.000
G01 X247.865 Y259.343
G01 X245.804 Y268.636
G01 X243.794 Y277.816
G01 X241.814 Y286.820
G01 X239.841 Y295.589
G01 X237.850 Y304.066
G01 X235.820 Y312.198
G01 X233.730 Y319.933
G01 X231.558 Y327.226
G01 X229.284 Y334.035
G01 X226.893 Y340.322
G01 X224.367 Y346.054
G01 X221.694 Y351.204
G01 X218.863 Y355.751
G01 X215.866 Y359.677
G01 X212.697 Y362.971
G01 X209.356 Y365.627
G01 X205.843 Y367.644
G01 X202.163 Y369.028
G01 X198.323 Y369.788
G01 X194.336 Y369.939
G01 X190.216 Y369.500
G01 X185.980 Y368.496
G01 X181.651 Y366.953
G01 X177.251 Y364.905
G01 X172.808 Y362.385
G01 X168.353 Y359.433
G01 X163.916 Y356.087
G01 X159.531 Y352.391
G01 X155.236 Y348.388
G01 X151.066 Y344.123
G01 X147.060 Y339.642
G01 X143.258 Y334.990
G01 X139.698 Y330.214
G01 X136.420 Y325.356
G01 X133.462 Y320.460
G01 X130.862 Y315.568
G01 X128.656 Y310.720
G01 X126.879 Y305.951
G01 X125.563 Y301.296
G01 X124.736 Y296.787
G01 X124.427 Y292.451
G01 X124.658 Y288.311
G01 X125.450 Y284.390
G01 X126.816 Y280.702
G01 X128.771 Y277.261
G01 X131.319 Y274.075
G01 X134.465 Y271.149
G01 X138.206 Y268.483
G01 X142.534 Y266.073
G01 X147.439 Y263.914
G01 X152.903 Y261.994
G01 X158.905 Y260.299
G01 X165.420 Y258.812
G01 X172.415 Y257.513
G01 X179.856 Y256.380
G01 X187.704 Y255.387
G01 X195.915 Y254.509
G01 X204.444 Y253.716
G01 X213.239 Y252.980
G01 X222.248 Y252.270
G01 X231.416 Y251.557
G01 X240.686 Y250.810
G01 X250.000 Y250.000
G01 X259.297 Y249.097
G01 X268.519 Y248.074
G01 X277.604 Y246.905
G01 X286.494 Y245.566
G01 X295.130 Y244.034
G01 X303.456 Y242.291
G01 X311.416 Y240.320
G01 X318.960 Y238.108
G01 X326.037 Y235.643
G01 X332.603 Y232.920
G01 X338.617 Y229.935
G01 X344.040 Y226.687
G01 X348.840 Y223.181
G01 X352.991 Y219.425
G01 X356.468 Y215.429
G01 X359.257 Y211.207
G01 X361.344 Y206.778
G01 X362.724 Y202.163
G01 X363.398 Y197.386
G01 X363.370 Y192.474
G01 X362.654 Y187.457
G01 X361.265 Y182.367
G01 X359.226 Y177.238
G01 X356.565 Y172.105
G01 X353.315 Y167.007
G01 X349.513 Y161.981
G01 X345.201 Y157.067
G01 X340.425 Y152.302
G01 X335.233 Y147.727
G01 X329.679 Y143.380
G01 X323.816 Y139.300
G01 X317.703 Y135.521
G01 X311.396 Y132.081
G01 X304.955 Y129.012
G01 X298.441 Y126.345
G01 X291.913 Y124.109
G01 X285.429 Y122.330
G01 X279.047 Y121.031
G01 X272.823 Y120.231
G01 X266.810 Y119.949
G01 X261.060 Y120.195
G01 X255.619 Y120.981
G01 X250.531 Y122.311
G01 X245.835 Y124.187
G01 X241.567 Y126.608
G01 X237.757 Y129.568
G01 X234.429 Y133.058
G01 X231.604 Y137.065
G01 X229.295 Y141.573
G01 X227.512 Y146.561
G01 X226.258 Y152.009
G01 X225.531 Y157.889
G01 X225.322 Y164.173
G01 X225.618 Y170.831
G01 X226.400 Y177.830
G01 X227.645 Y185.134
G01 X229.324 Y192.708
G01 X231.405 Y200.512
G01 X233.849 Y208.510
G01 X236.616 Y216.661
G01 X239.663 Y224.925
G01 X242.942 Y233.262
G01 X246.405 Y241.634
G01 X250.000 Y250.000
G01 X253.676 Y258.323
G01 X257.379 Y266.565
G01 X261.057 Y274.692
G01 X264.658 Y282.668
G01 X268.131 Y290.461
G01 X271.424 Y298.042
G01 X274.492 Y305.381
G01 X277.289 Y312.452
G01 X279.772 Y319.234
G01 X281.903 Y325.703
G01 X283.649 Y331.842
G01 X284.977 Y337.635
G01 X285.864 Y343.069
G01 X286.288 Y348.133
G01 X286.233 Y352.818
G01 X285.690 Y357.119
G01 X284.653 Y361.033
G01 X283.123 Y364.558
G01 X281.107 Y367.695
G01 X278.616 Y370.448
G01 X275.668 Y372.822
G01 X272.283 Y374.822
G01 X268.491 Y376.457
G01 X264.322 Y377.736
G01 X259.813 Y378.670
G01 X255.004 Y379.270
G01 X249.940 Y379.547
G01 X244.668 Y379.515
G01 X239.237 Y379.186
G01 X233.699 Y378.574
G01 X228.110 Y377.692
G01 X222.523 Y376.551
G01 X216.994 Y375.166
G01 X211.579 Y373.548
G01 X206.332 Y371.709
G01 X201.308 Y369.660
G01 X196.558 Y367.411
G01 X192.133 Y364.971
G01 X188.079 Y362.349
G01 X184.441 Y359.553
G01 X181.258 Y356.590
G01 X178.566 Y353.465
G01 X176.397 Y350.184
G01 X174.777 Y346.751
G01 X173.728 Y343.170
G01 X173.265 Y339.443
G01 X173.399 Y335.574
G01 X174.135 Y331.564
G01 X175.469 Y327.415
G01 X177.397 Y323.128
G01 X179.904 Y318.705
G01 X182.972 Y314.147
G01 X186.577 Y309.455
G01 X190.688 Y304.632
G01 X195.272 Y299.679
G01 X200.288 Y294.600
G01 X205.693 Y289.397
G01 X211.438 Y284.075
G01 X217.473 Y278.639
G01 X223.743 Y273.095
G01 X230.190 Y267.451
G01 X236.756 Y261.713
G01 X243.380 Y255.893
G01 X250.000 Y250.000
G01 X256.556 Y244.046
G01 X262.985 Y238.044
G01 X269.228 Y232.009
G01 X275.225 Y225.955
G01 X280.921 Y219.899
G01 X286.260 Y213.859
G01 X291.193 Y207.852
G01 X295.672 Y201.898
G01 X299.654 Y196.017
G01 X303.100 Y190.229
G01 X305.977 Y184.555
G01 X308.258 Y179.017
G01 X309.919 Y173.636
G01 X310.944 Y168.432
G01 X311.321 Y163.428
G01 X311.047 Y158.643
G01 X310.123 Y154.097
G01 X308.557 Y149.811
G01 X306.362 Y145.802
G01 X303.558 Y142.088
G01 X300.171 Y138.684
G01 X296.232 Y135.606
G01 X291.778 Y132.867
G01 X286.849 Y130.477
G01 X281.493 Y128.447
G01 X275.758 Y126.785
G01 X269.699 Y125.496
G01 X263.372 Y124.584
G01 X256.838 Y124.051
G01 X250.157 Y123.897
G01 X243.394 Y124.119
G01 X236.611 Y124.713
G01 X229.873 Y125.674
G01 X223.244 Y126.991
G01 X216.787 Y128.657
G01 X210.563 Y130.657
G01 X204.633 Y132.979
G01 X199.051 Y135.608
G01 X193.874 Y138.527
G01 X189.149 Y141.718
G01 X184.923 Y145.163
G01 X181.237 Y148.842
G01 X178.128 Y152.734
G01 X175.626 Y156.819
G01 X173.757 Y161.075
G01 X172.540 Y165.482
G01 X171.990 Y170.017
G01 X172.115 Y174.660
G01 X172.915 Y179.391
G01 X174.386 Y184.190
G01 X176.519 Y189.037
G01 X179.296 Y193.914
G01 X182.695 Y198.805
G01 X186.689 Y203.693
G01 X191.245 Y208.565
G01 X196.324 Y213.406
G01 X201.886 Y218.206
G01 X207.882 Y222.955
G01 X214.264 Y227.643
G01 X220.977 Y232.265
G01 X227.966 Y236.815
G01 X235.173 Y241.288
G01 X242.538 Y245.684
G01 X250.000 Y250.000
G01 X257.498 Y254.238
G01 X264.972 Y258.398
G01 X272.361 Y262.485
G01 X279.605 Y266.501
G01 X286.648 Y270.451
G01 X293.435 Y274.340
G01 X299.913 Y278.174
G01 X306.034 Y281.958
G01 X311.753 Y285.698
G01 X317.028 Y289.401
G01 X321.824 Y293.071
G01 X326.107 Y296.715
G01 X329.851 Y300.335
G01 X333.034 Y303.936
G01 X335.640 Y307.521
G01 X337.659 Y311.090
G01 X339.083 Y314.645
G01 X339.914 Y318.182
G01 X340.157 Y321.701
G01 X339.822 Y325.197
G01 X338.924 Y328.663
G01 X337.486 Y332.092
G01 X335.531 Y335.475
G01 X333.090 Y338.800
G01 X330.196 Y342.056
G01 X326.885 Y345.228
G01 X323.199 Y348.299
G01 X319.180 Y351.253
G01 X314.873 Y354.072
G01 X310.326 Y356.736
G01 X305.586 Y359.223
G01 X300.703 Y361.515
G01 X295.725 Y363.587
G01 X290.703 Y365.418
G01 X285.683 Y366.987
G01 X280.714 Y368.270
G01 X275.840 Y369.246
G01 X271.104 Y369.894
G01 X266.548 Y370.194
G01 X262.208 Y370.128
G01 X258.119 Y369.677
G01 X254.312 Y368.826
G01 X250.813 Y367.561
G01 X247.644 Y365.871
G01 X244.825 Y363.745
G01 X242.369 Y361.179
G01 X240.284 Y358.167
G01 X238.575 Y354.709
G01 X237.243 Y350.807
G01 X236.282 Y346.465
G01 X235.684 Y341.693
G01 X235.434 Y336.502
G01 X235.516 Y330.906
G01 X235.908 Y324.925
G01 X236.584 Y318.579
G01 X237.517 Y311.893
G01 X238.674 Y304.894
G01 X240.023 Y297.613
G01 X241.526 Y290.082
G01 X243.146 Y282.338
G01 X244.844 Y274.417
G01 X246.579 Y266.359
G01 X248.312 Y258.206
G01 X250.000 Y250.000
G01 X251.605 Y241.785
G01 X253.087 Y233.605
G01 X254.409 Y225.506
G01 X255.534 Y217.532
G01 X256.429 Y209.727
G01 X257.063 Y202.135
G01 X257.408 Y194.799
G01 X257.439 Y187.759
G01 X257.134 Y181.056
G01 X256.476 Y174.727
G01 X255.452 Y168.805
G01 X254.052 Y163.324
G01 X252.272 Y158.311
G01 X250.110 Y153.792
G01 X247.570 Y149.790
G01 X244.661 Y146.323
G01 X241.394 Y143.404
G01 X237.788 Y141.044
G01 X233.862 Y139.249
G01 X229.642 Y138.022
G01 X225.155 Y137.359
G01 X220.435 Y137.254
G01 X215.515 Y137.697
G01 X210.434 Y138.672
G01 X205.232 Y140.161
G01 X199.951 Y142.143
G01 X194.636 Y144.589
G01 X189.332 Y147.473
G01 X184.084 Y150.760
G01 X178.940 Y154.417
G01 X173.945 Y158.405
G01 X169.146 Y162.686
G01 X164.589 Y167.218
G01 X160.315 Y171.960
G01 X156.368 Y176.867
G01 X152.787 Y181.896
G01 X149.610 Y187.003
G01 X146.870 Y192.144
G01 X144.600 Y197.278
G01 X142.827 Y202.361
G01 X141.574 Y207.355
G01 X140.862 Y212.221
G01 X140.707 Y216.923
G01 X141.121 Y221.428
G01 X142.111 Y225.705
G01 X143.679 Y229.727
G01 X145.824 Y233.471
G01 X148.541 Y236.916
G01 X151.818 Y240.046
G01 X155.642 Y242.848
G01 X159.992 Y245.313
G01 X164.848 Y247.438
G01 X170.182 Y249.222
G01 X175.964 Y250.669
G01 X182.162 Y251.786
G01 X188.739 Y252.584
G01 X195.656 Y253.080
G01 X202.874 Y253.291
G01 X210.349 Y253.239
G01 X218.036 Y252.950
G01 X225.891 Y252.450
G01 X233.868 Y251.771
G01 X241.920 Y250.943
G01 X250.000 Y250.000
G01 X258.063 Y248.978
G01 X266.063 Y247.911
G01 X273.957 Y246.836
G01 X281.702 Y245.789
G01 X289.256 Y244.806
G01 X296.582 Y243.921
G01 X303.643 Y243.169
G01 X310.406 Y242.580
G01 X316.839 Y242.185
G01 X322.915 Y242.012
G01 X328.610 Y242.085
G01 X333.901 Y242.426
G01 X338.772 Y243.054
G01 X343.207 Y243.983
G01 X347.197 Y245.225
G01 X350.732 Y246.787
G01 X353.811 Y248.672
G01 X356.431 Y250.879
G01 X358.595 Y253.403
G01 X360.309 Y256.236
G01 X361.581 Y259.362
G01 X362.423 Y262.766
G01 X362.849 Y266.425
G01 X362.874 Y270.315
G01 X362.517 Y274.407
G01 X361.799 Y278.670
G01 X360.739 Y283.069
G01 X359.363 Y287.566
G01 X357.692 Y292.123
G01 X355.752 Y296.698
G01 X353.568 Y301.249
G01 X351.165 Y305.731
G01 X348.567 Y310.100
G01 X345.800 Y314.313
G01 X342.886 Y318.325
G01 X339.851 Y322.093
G01 X336.714 Y325.575
G01 X333.498 Y328.731
G01 X330.221 Y331.522
G01 X326.901 Y333.915
G01 X323.555 Y335.875
G01 X320.196 Y337.374
G01 X316.837 Y338.387
G01 X313.489 Y338.892
G01 X310.159 Y338.871
G01 X306.856 Y338.313
G01 X303.582 Y337.209
G01 X300.342 Y335.556
G01 X297.136 Y333.355
G01 X293.964 Y330.614
G01 X290.823 Y327.343
G01 X287.710 Y323.559
G01 X284.620 Y319.283
G01 X281.546 Y314.542
G01 X278.483 Y309.365
G01 X275.422 Y303.787
G01 X272.355 Y297.847
G01 X269.273 Y291.586
G01 X266.168 Y285.050
G01 X263.030 Y278.286
G01 X259.853 Y271.346
G01 X256.627 Y264.283
G01 X253.345 Y257.149
G01 X250.000 Y250.000
G01 X246.587 Y242.892
G01 X243.102 Y235.880
G01 X239.541 Y229.020
G01 X235.902 Y222.364
G01 X232.185 Y215.967
G01 X228.391 Y209.878
G01 X224.523 Y204.145
G01 X220.585 Y198.814
G01 X216.583 Y193.925
G01 X212.525 Y189.517
G01 X208.420 Y185.624
G01 X204.279 Y182.275
G01 X200.115 Y179.494
G01 X195.941 Y177.302
G01 X191.773 Y175.711
G01 X187.627 Y174.733
G01 X183.520 Y174.369
G01 X179.472 Y174.619
G01 X175.501 Y175.476
G01 X171.626 Y176.926
G01 X167.869 Y178.952
G01 X164.249 Y181.531
G01 X160.787 Y184.635
G01 X157.503 Y188.231
G01 X154.417 Y192.284
G01 X151.549 Y196.751
G01 X148.917 Y201.589
G01 X146.538 Y206.751
G01 X144.430 Y212.185
G01 X142.608 Y217.839
G01 X141.086 Y223.659
G01 X139.875 Y229.590
G01 X138.988 Y235.574
G01 X138.434 Y241.556
G01 X138.218 Y247.478
G01 X138.348 Y253.287
G01 X138.826 Y258.927
G01 X139.654 Y264.346
G01 X140.831 Y269.495
G01 X142.355 Y274.327
G01 X144.221 Y278.799
G01 X146.424 Y282.869
G01 X148.954 Y286.502
G01 X151.802 Y289.666
G01 X154.956 Y292.335
G01 X158.403 Y294.487
G01 X162.129 Y296.103
G01 X166.117 Y297.173
G01 X170.351 Y297.689
G01 X174.812 Y297.652
G01 X179.482 Y297.064
G01 X184.340 Y295.936
G01 X189.368 Y294.282
G01 X194.543 Y292.121
G01 X199.846 Y289.478
G01 X205.256 Y286.382
G01 X210.752 Y282.867
G01 X216.314 Y278.968
G01 X221.922 Y274.728
G01 X227.557 Y270.188
G01 X233.200 Y265.396
G01 X238.832 Y260.401
G01 X244.438 Y255.252
G01 X250.000 Y250.000
G01 X255.504 Y244.698
G01 X260.936 Y239.399
G01 X266.282 Y234.153
G01 X271.531 Y229.013
G01 X276.673 Y224.028
G01 X281.697 Y219.246
G01 X286.596 Y214.712
G01 X291.361 Y210.470
G01 X295.987 Y206.560
G01 X300.468 Y203.017
G01 X304.799 Y199.875
G01 X308.977 Y197.161
G01 X312.998 Y194.900
G01 X316.861 Y193.110
G01 X320.563 Y191.807
G01 X324.102 Y191.000
G01 X327.478 Y190.693
G01 X330.690 Y190.886
G01 X333.735 Y191.575
G01 X336.615 Y192.748
G01 X339.327 Y194.391
G01 X341.870 Y196.484
G01 X344.242 Y199.003
G01 X346.443 Y201.921
G01 X348.469 Y205.206
G01 X350.319 Y208.822
G01 X351.988 Y212.731
G01 X353.473 Y216.893
G01 X354.770 Y221.265
G01 X355.874 Y225.801
G01 X356.780 Y230.455
G01 X357.483 Y235.181
G01 X357.977 Y239.931
G01 X358.254 Y244.657
G01 X358.309 Y249.314
G01 X358.134 Y253.856
G01 X357.723 Y258.239
G01 X357.069 Y262.420
G01 X356.165 Y266.361
G01 X355.005 Y270.026
G01 X353.582 Y273.379
G01 X351.891 Y276.392
G01 X349.928 Y279.039
G01 X347.687 Y281.297
G01 X345.166 Y283.149
G01 X342.363 Y284.582
G01 X339.276 Y285.587
G01 X335.906 Y286.159
G01 X332.255 Y286.300
G01 X328.326 Y286.015
G01 X324.124 Y285.314
G01 X319.656 Y284.212
G01 X314.929 Y282.726
G01 X309.954 Y280.881
G01 X304.742 Y278.702
G01 X299.307 Y276.220
G01 X293.665 Y273.469
G01 X287.832 Y270.485
G01 X281.828 Y267.308
G01 X275.672 Y263.977
G01 X269.388 Y260.537
G01 X262.997 Y257.031
G01 X256.526 Y253.503
G01 X250.000 Y250.000
G01 X243.446 Y246.566
G01 X236.892 Y243.245
G01 X230.365 Y240.080
G01 X223.896 Y237.114
G01 X217.513 Y234.386
G01 X211.246 Y231.933
G01 X205.123 Y229.790
G01 X199.172 Y227.989
G01 X193.422 Y226.556
G01 X187.900 Y225.516
G01 X182.632 Y224.890
G01 X177.642 Y224.693
G01 X172.953 Y224.937
G01 X168.588 Y225.629
G01 X164.564 Y226.770
G01 X160.900 Y228.359
G01 X157.611 Y230.388
G01 X154.710 Y232.846
G01 X152.206 Y235.717
G01 X150.109 Y238.979
G01 X148.422 Y242.609
G01 X147.149 Y246.577
G01 X146.289 Y250.851
G01 X145.839 Y255.395
G01 X145.793 Y260.171
G01 X146.144 Y265.137
G01 X146.879 Y270.249
G01 X147.987 Y275.461
G01 X149.450 Y280.726
G01 X151.252 Y285.997
G01 X153.372 Y291.224
G01 X155.788 Y296.358
G01 X158.477 Y301.352
G01 X161.414 Y306.157
G01 X164.573 Y310.727
G01 X167.927 Y315.018
G01 X171.449 Y318.986
G01 X175.109 Y322.593
G01 X178.881 Y325.801
G01 X182.735 Y328.576
G01 X186.644 Y330.888
G01 X190.580 Y332.710
G01 X194.518 Y334.020
G01 X198.432 Y334.800
G01 X202.298 Y335.036
G01 X206.095 Y334.719
G01 X209.801 Y333.844
G01 X213.397 Y332.412
G01 X216.868 Y330.427
G01 X220.200 Y327.898
G01 X223.379 Y324.839
G01 X226.398 Y321.269
G01 X229.249 Y317.209
G01 X231.927 Y312.686
G01 X234.432 Y307.730
G01 X236.762 Y302.375
G01 X238.922 Y296.656
G01 X240.918 Y290.613
G01 X242.756 Y284.287
G01 X244.446 Y277.723
G01 X246.002 Y270.966
G01 X247.435 Y264.061
G01 X248.763 Y257.057
G01 X250.000 Y250.000
G01 X251.166 Y242.939
G01 X252.278 Y235.920
G01 X253.356 Y228.991
G01 X254.421 Y222.195
G01 X255.491 Y215.576
G01 X256.587 Y209.176
G01 X257.727 Y203.033
G01 X258.930 Y197.184
G01 X260.214 Y191.662
G01 X261.595 Y186.498
G01 X263.088 Y181.718
G01 X264.705 Y177.346
G01 X266.458 Y173.402
G01 X268.355 Y169.901
G01 X270.403 Y166.854
G01 X272.607 Y164.271
G01 X274.969 Y162.156
G01 X277.486 Y160.508
G01 X280.155 Y159.324
G01 X282.971 Y158.597
G01 X285.923 Y158.316
G01 X289.001 Y158.467
G01 X292.189 Y159.034
G01 X295.470 Y159.995
G01 X298.825 Y161.329
G01 X302.233 Y163.011
G01 X305.670 Y165.014
G01 X309.109 Y167.309
G01 X312.524 Y169.865
G01 X315.886 Y172.653
G01 X319.166 Y175.640
G01 X322.333 Y178.795
G01 X325.356 Y182.084
G01 X328.203 Y185.476
G01 X330.845 Y188.940
G01 X333.250 Y192.446
G01 X335.389 Y195.964
G01 X337.233 Y199.467
G01 X338.755 Y202.930
G01 X339.929 Y206.327
G01 X340.734 Y209.639
G01 X341.147 Y212.844
G01 X341.150 Y215.927
G01 X340.729 Y218.874
G01 X339.871 Y221.672
G01 X338.567 Y224.314
G01 X336.811 Y226.793
G01 X334.602 Y229.105
G01 X331.941 Y231.252
G01 X328.834 Y233.234
G01 X325.290 Y235.057
G01 X321.322 Y236.727
G01 X316.947 Y238.255
G01 X312.184 Y239.652
G01 X307.059 Y240.931
G01 X301.598 Y242.107
G01 X295.831 Y243.197
G01 X289.792 Y244.220
G01 X283.516 Y245.192
G01 X277.043 Y246.135
G01 X270.411 Y247.067
G01 X263.665 Y248.009
G01 X256.846 Y248.980
G01 X250.000 Y250.000
G01 X243.172 Y251.087
G01 X236.408 Y252.259
G01 X229.752 Y253.533
G01 X223.251 Y254.923
G01 X216.948 Y256.443
G01 X210.885 Y258.105
G01 X205.103 Y259.918
G01 X199.642 Y261.890
G01 X194.538 Y264.026
G01 X189.824 Y266.330
G01 X185.531 Y268.801
G01 X181.687 Y271.438
G01 X178.314 Y274.237
G01 X175.434 Y277.191
G01 X173.061 Y280.290
G01 X171.207 Y283.524
G01 X169.880 Y286.878
G01 X169.082 Y290.336
G01 X168.813 Y293.880
G01 X169.066 Y297.492
G01 X169.832 Y301.148
G01 X171.096 Y304.827
G01 X172.839 Y308.505
G01 X175.041 Y312.155
G01 X177.674 Y315.753
G01 X180.710 Y319.272
G01 X184.115 Y322.685
G01 X187.854 Y325.966
G01 X191.889 Y329.087
G01 X196.179 Y332.024
G01 X200.683 Y334.750
G01 X205.357 Y337.241
G01 X210.156 Y339.474
G01 X215.035 Y341.428
G01 X219.949 Y343.083
G01 X224.852 Y344.419
G01 X229.701 Y345.421
G01 X234.452 Y346.075
G01 X239.063 Y346.368
G01 X243.494 Y346.291
G01 X247.708 Y345.837
G01 X251.669 Y345.002
G01 X255.345 Y343.783
G01 X258.707 Y342.180
G01 X261.730 Y340.198
G01 X264.392 Y337.841
G01 X266.675 Y335.118
G01 X268.566 Y332.038
G01 X270.055 Y328.615
G01 X271.136 Y324.864
G01 X271.808 Y320.802
G01 X272.074 Y316.447
G01 X271.942 Y311.820
G01 X271.423 Y306.943
G01 X270.533 Y301.840
G01 X269.290 Y296.535
G01 X267.717 Y291.054
G01 X265.841 Y285.423
G01 X263.690 Y279.669
G01 X261.296 Y273.818
G01 X258.693 Y267.900
G01 X255.917 Y261.939
G01 X253.006 Y255.964
G01 X250.000 Y250.000
G01 X246.937 Y244.073
G01 X243.859 Y238.209
G01 X240.805 Y232.429
G01 X237.816 Y226.759
G01 X234.929 Y221.217
G01 X232.184 Y215.826
G01 X229.615 Y210.602
G01 X227.257 Y205.563
G01 X225.143 Y200.724
G01 X223.299 Y196.098
G01 X221.754 Y191.699
G01 X220.528 Y187.534
G01 X219.642 Y183.614
G01 X219.111 Y179.945
G01 X218.947 Y176.531
G01 X219.156 Y173.378
G01 X219.743 Y170.486
G01 X220.707 Y167.857
G01 X222.043 Y165.490
G01 X223.742 Y163.383
G01 X225.792 Y161.533
G01 X228.175 Y159.936
G01 X230.872 Y158.588
G01 X233.858 Y157.484
G01 X237.107 Y156.616
G01 X240.587 Y155.979
G01 X244.268 Y155.566
G01 X248.113 Y155.369
G01 X252.086 Y155.381
G01 X256.147 Y155.595
G01 X260.257 Y156.004
G01 X264.376 Y156.600
G01 X268.462 Y157.377
G01 X272.474 Y158.328
G01 X276.372 Y159.448
G01 X280.116 Y160.730
G01 X283.668 Y162.170
G01 X286.992 Y163.762
G01 X290.052 Y165.503
G01 X292.817 Y167.388
G01 X295.257 Y169.415
G01 X297.346 Y171.580
G01 X299.062 Y173.882
G01 X300.384 Y176.318
G01 X301.298 Y178.886
G01 X301.792 Y181.585
G01 X301.858 Y184.413
G01 X301.494 Y187.370
G01 X300.701 Y190.453
G01 X299.483 Y193.661
G01 X297.851 Y196.994
G01 X295.818 Y200.448
G01 X293.403 Y204.022
G01 X290.626 Y207.713
G01 X287.513 Y211.517
G01 X284.092 Y215.432
G01 X280.396 Y219.452
G01 X276.460 Y223.572
G01 X272.320 Y227.787
G01 X268.016 Y232.088
G01 X263.589 Y236.469
G01 X259.082 Y240.922
G01 X254.537 Y245.435
G01 X250.000 Y250.000
G01 X245.514 Y254.604
G01 X241.123 Y259.236
G01 X236.870 Y263.883
G01 X232.797 Y268.531
G01 X228.944 Y273.165
G01 X225.349 Y277.771
G01 X222.048 Y282.333
G01 X219.075 Y286.835
G01 X216.459 Y291.261
G01 X214.227 Y295.594
G01 X212.403 Y299.818
G01 X211.004 Y303.916
G01 X210.048 Y307.872
G01 X209.543 Y311.671
G01 X209.498 Y315.295
G01 X209.914 Y318.731
G01 X210.790 Y321.963
G01 X212.117 Y324.979
G01 X213.886 Y327.766
G01 X216.082 Y330.312
G01 X218.684 Y332.607
G01 X221.669 Y334.642
G01 X225.010 Y336.410
G01 X228.678 Y337.903
G01 X232.637 Y339.117
G01 X236.851 Y340.048
G01 X241.282 Y340.696
G01 X245.887 Y341.060
G01 X250.624 Y341.141
G01 X255.448 Y340.942
G01 X260.314 Y340.468
G01 X265.176 Y339.726
G01 X269.987 Y338.721
G01 X274.703 Y337.465
G01 X279.278 Y335.966
G01 X283.668 Y334.236
G01 X287.832 Y332.288
G01 X291.729 Y330.135
G01 X295.322 Y327.792
G01 X298.575 Y325.274
G01 X301.457 Y322.595
G01 X303.939 Y319.773
G01 X305.996 Y316.824
G01 X307.607 Y313.764
G01 X308.754 Y310.609
G01 X309.425 Y307.377
G01 X309.611 Y304.082
G01 X309.308 Y300.740
G01 X308.514 Y297.366
G01 X307.236 Y293.974
G01 X305.481 Y290.577
G01 X303.262 Y287.188
G01 X300.596 Y283.818
G01 X297.504 Y280.477
G01 X294.011 Y277.173
G01 X290.144 Y273.916
G01 X285.934 Y270.710
G01 X281.416 Y267.562
G01 X276.625 Y264.474
G01 X271.601 Y261.451
G01 X266.384 Y258.492
G01 X261.016 Y255.598
G01 X255.540 Y252.768
G01 X250.000 Y250.000
G01 X244.439 Y247.291
G01 X238.901 Y244.637
G01 X233.429 Y242.033
G01 X228.066 Y239.475
G01 X222.851 Y236.956
G01 X217.825 Y234.470
G01 X213.023 Y232.011
G01 X208.481 Y229.573
G01 X204.231 Y227.149
G01 X200.301 Y224.734
G01 X196.718 Y222.322
G01 X193.503 Y219.907
G01 X190.676 Y217.486
G01 X188.252 Y215.056
G01 X186.243 Y212.612
G01 X184.655 Y210.155
G01 X183.493 Y207.684
G01 X182.756 Y205.199
G01 X182.440 Y202.703
G01 X182.539 Y200.199
G01 X183.040 Y197.693
G01 X183.930 Y195.190
G01 X185.189 Y192.698
G01 X186.799 Y190.228
G01 X188.734 Y187.788
G01 X190.969 Y185.391
G01 X193.476 Y183.050
G01 X196.224 Y180.779
G01 X199.183 Y178.592
G01 X202.319 Y176.507
G01 X205.599 Y174.539
G01 X208.989 Y172.706
G01 X212.454 Y171.026
G01 X215.960 Y169.516
G01 X219.475 Y168.194
G01 X222.965 Y167.078
G01 X226.399 Y166.185
G01 X229.747 Y165.532
G01 X232.982 Y165.135
G01 X236.078 Y165.009
G01 X239.011 Y165.167
G01 X241.759 Y165.622
G01 X244.305 Y166.385
G01 X246.634 Y167.465
G01 X248.732 Y168.869
G01 X250.591 Y170.602
G01 X252.205 Y172.667
G01 X253.569 Y175.065
G01 X254.685 Y177.795
G01 X255.556 Y180.852
G01 X256.187 Y184.229
G01 X256.589 Y187.918
G01 X256.773 Y191.907
G01 X256.753 Y196.182
G01 X256.547 Y200.727
G01 X256.174 Y205.522
G01 X255.655 Y210.548
G01 X255.013 Y215.781
G01 X254.273 Y221.195
G01 X253.459 Y226.764
G01 X252.597 Y232.460
G01 X251.716 Y238.252
G01 X250.841 Y244.109
G01 X250.000 Y250.000
G01 X249.219 Y255.891
G01 X248.523 Y261.750
G01 X247.938 Y267.543
G01 X247.487 Y273.237
G01 X247.192 Y278.799
G01 X247.072 Y284.196
G01 X247.146 Y289.398
G01 X247.429 Y294.374
G01 X247.936 Y299.096
G01 X248.675 Y303.536
G01 X249.656 Y307.671
G01 X250.883 Y311.476
G01 X252.359 Y314.932
G01 X254.082 Y318.021
G01 X256.050 Y320.727
G01 X258.255 Y323.039
G01 X260.687 Y324.946
G01 X263.335 Y326.443
G01 X266.183 Y327.527
G01 X269.213 Y328.197
G01 X272.406 Y328.457
G01 X275.738 Y328.312
G01 X279.186 Y327.772
G01 X282.724 Y326.850
G01 X286.324 Y325.560
G01 X289.956 Y323.921
G01 X293.591 Y321.952
G01 X297.199 Y319.676
G01 X300.748 Y317.119
G01 X304.206 Y314.307
G01 X307.544 Y311.269
G01 X310.729 Y308.034
G01 X313.733 Y304.634
G01 X316.526 Y301.100
G01 X319.082 Y297.465
G01 X321.373 Y293.761
G01 X323.376 Y290.021
G01 X325.068 Y286.277
G01 X326.430 Y282.561
G01 X327.444 Y278.902
G01 X328.096 Y275.330
G01 X328.372 Y271.873
G01 X328.263 Y268.556
G01 X327.763 Y265.403
G01 X326.869 Y262.437
G01 X325.579 Y259.675
G01 X323.897 Y257.136
G01 X321.826 Y254.831
G01 X319.376 Y252.773
G01 X316.558 Y250.970
G01 X313.385 Y249.425
G01 X309.873 Y248.143
G01 X306.042 Y247.120
G01 X301.912 Y246.354
G01 X297.507 Y245.837
G01 X292.851 Y245.560
G01 X287.971 Y245.510
G01 X282.895 Y245.673
G01 X277.652 Y246.030
G01 X272.272 Y246.563
G01 X266.786 Y247.250
G01 X261.224 Y248.069
G01 X255.618 Y248.994
G01 X250.000 Y250.000
G01 X244.399 Y251.061
G01 X238.847 Y252.150
G01 X233.371 Y253.239
G01 X228.001 Y254.303
G01 X222.763 Y255.313
G01 X217.683 Y256.244
G01 X212.784 Y257.071
G01 X208.089 Y257.770
G01 X203.618 Y258.319
G01 X199.389 Y258.698
G01 X195.418 Y258.889
G01 X191.718 Y258.875
G01 X188.301 Y258.643
G01 X185.177 Y258.182
G01 X182.352 Y257.483
G01 X179.832 Y256.543
G01 X177.617 Y255.357
G01 X175.710 Y253.928
G01 X174.108 Y252.259
G01 X172.807 Y250.357
G01 X171.802 Y248.231
G01 X171.086 Y245.894
G01 X170.650 Y243.363
G01 X170.482 Y240.655
G01 X170.573 Y237.791
G01 X170.908 Y234.793
G01 X171.474 Y231.688
G01 X172.257 Y228.502
G01 X173.242 Y225.263
G01 X174.413 Y222.002
G01 X175.755 Y218.748
G01 X177.251 Y215.534
G01 X178.887 Y212.392
G01 X180.647 Y209.352
G01 X182.516 Y206.447
G01 X184.480 Y203.708
G01 X186.526 Y201.165
G01 X188.639 Y198.846
G01 X190.810 Y196.778
G01 X193.026 Y194.986
G01 X195.278 Y193.494
G01 X197.558 Y192.323
G01 X199.857 Y191.489
G01 X202.170 Y191.009
G01 X204.490 Y190.894
G01 X206.815 Y191.154
G01 X209.141 Y191.793
G01 X211.466 Y192.814
G01 X213.790 Y194.215
G01 X216.113 Y195.993
G01 X218.435 Y198.137
G01 X220.759 Y200.638
G01 X223.086 Y203.479
G01 X225.421 Y206.642
G01 X227.766 Y210.105
G01 X230.126 Y213.845
G01 X232.504 Y217.834
G01 X234.905 Y222.042
G01 X237.333 Y226.438
G01 X239.792 Y230.988
G01 X242.284 Y235.657
G01 X244.815 Y240.407
G01 X247.386 Y245.200
G01 X250.000 Y250.000
G01 X252.658 Y254.767
G01 X255.361 Y259.461
G01 X258.109 Y264.047
G01 X260.900 Y268.485
G01 X263.734 Y272.740
G01 X266.606 Y276.777
G01 X269.514 Y280.564
G01 X272.451 Y284.069
G01 X275.413 Y287.264
G01 X278.391 Y290.124
G01 X281.379 Y292.626
G01 X284.367 Y294.751
G01 X287.347 Y296.482
G01 X290.306 Y297.807
G01 X293.236 Y298.716
G01 X296.122 Y299.205
G01 X298.955 Y299.271
G01 X301.721 Y298.918
G01 X304.406 Y298.151
G01 X306.999 Y296.980
G01 X309.486 Y295.418
G01 X311.854 Y293.482
G01 X314.090 Y291.192
G01 X316.182 Y288.573
G01 X318.118 Y285.649
G01 X319.886 Y282.451
G01 X321.476 Y279.010
G01 X322.877 Y275.359
G01 X324.080 Y271.533
G01 X325.077 Y267.570
G01 X325.861 Y263.507
G01 X326.426 Y259.384
G01 X326.767 Y255.239
G01 X326.879 Y251.112
G01 X326.761 Y247.041
G01 X326.412 Y243.065
G01 X325.830 Y239.220
G01 X325.019 Y235.543
G01 X323.980 Y232.068
G01 X322.717 Y228.826
G01 X321.235 Y225.847
G01 X319.541 Y223.158
G01 X317.641 Y220.783
G01 X315.544 Y218.743
G01 X313.260 Y217.056
G01 X310.797 Y215.736
G01 X308.168 Y214.794
G01 X305.383 Y214.237
G01 X302.455 Y214.069
G01 X299.395 Y214.289
G01 X296.218 Y214.894
G01 X292.935 Y215.876
G01 X289.561 Y217.224
G01 X286.108 Y218.923
G01 X282.590 Y220.955
G01 X279.020 Y223.301
G01 X275.409 Y225.935
G01 X271.772 Y228.832
G01 X268.119 Y231.963
G01 X264.462 Y235.298
G01 X260.811 Y238.803
G01 X257.178 Y242.445
G01 X253.571 Y246.190
G01 X250.000 Y250.000
G01 X246.472 Y253.840
G01 X242.995 Y257.674
G01 X239.575 Y261.466
G01 X236.219 Y265.181
G01 X232.931 Y268.783
G01 X229.715 Y272.242
G01 X226.577 Y275.524
G01 X223.518 Y278.600
G01 X220.542 Y281.445
G01 X217.651 Y284.032
G01 X214.846 Y286.339
G01 X212.129 Y288.348
G01 X209.500 Y290.042
G01 X206.961 Y291.408
G01 X204.512 Y292.437
G01 X202.154 Y293.122
G01 X199.887 Y293.460
G01 X197.712 Y293.451
G01 X195.630 Y293.101
G01 X193.642 Y292.414
G01 X191.748 Y291.403
G01 X189.952 Y290.080
G01 X188.254 Y288.462
G01 X186.657 Y286.567
G01 X185.163 Y284.418
G01 X183.777 Y282.038
G01 X182.501 Y279.452
G01 X181.340 Y276.690
G01 X180.298 Y273.779
G01 X179.380 Y270.751
G01 X178.591 Y267.635
G01 X177.937 Y264.465
G01 X177.425 Y261.271
G01 X177.060 Y258.085
G01 X176.848 Y254.939
G01 X176.796 Y251.863
G01 X176.910 Y248.886
G01 X177.196 Y246.036
G01 X177.661 Y243.339
G01 X178.311 Y240.820
G01 X179.150 Y238.501
G01 X180.183 Y236.401
G01 X181.415 Y234.539
G01 X182.849 Y232.928
G01 X184.488 Y231.580
G01 X186.335 Y230.503
G01 X188.388 Y229.704
G01 X190.649 Y229.184
G01 X193.116 Y228.944
G01 X195.787 Y228.979
G01 X198.657 Y229.283
G01 X201.722 Y229.846
G01 X204.975 Y230.656
G01 X208.408 Y231.697
G01 X212.012 Y232.953
G01 X215.777 Y234.402
G01 X219.691 Y236.022
G01 X223.740 Y237.791
G01 X227.910 Y239.682
G01 X232.186 Y241.668
G01 X236.551 Y243.722
G01 X240.987 Y245.815
G01 X245.477 Y247.917
G01 X250.000 Y250.000
G01 X254.537 Y252.035
G01 X259.067 Y253.992
G01 X263.569 Y255.845
G01 X268.023 Y257.566
G01 X272.407 Y259.130
G01 X276.700 Y260.514
G01 X280.882 Y261.696
G01 X284.932 Y262.656
G01 X288.831 Y263.376
G01 X292.559 Y263.843
G01 X296.098 Y264.042
G01 X299.432 Y263.966
G01 X302.545 Y263.608
G01 X305.422 Y262.964
G01 X308.050 Y262.033
G01 X310.419 Y260.819
G01 X312.517 Y259.326
G01 X314.339 Y257.564
G01 X315.876 Y255.543
G01 X317.126 Y253.278
G01 X318.086 Y250.786
G01 X318.756 Y248.087
G01 X319.138 Y245.202
G01 X319.235 Y242.154
G01 X319.053 Y238.971
G01 X318.599 Y235.678
G01 X317.883 Y232.306
G01 X316.915 Y228.884
G01 X315.709 Y225.442
G01 X314.278 Y222.013
G01 X312.637 Y218.628
G01 X310.804 Y215.318
G01 X308.796 Y212.114
G01 X306.632 Y209.048
G01 X304.331 Y206.149
G01 X301.913 Y203.444
G01 X299.398 Y200.962
G01 X296.806 Y198.727
G01 X294.158 Y196.763
G01 X291.475 Y195.091
G01 X288.775 Y193.729
G01 X286.078 Y192.695
G01 X283.403 Y192.000
G01 X280.766 Y191.657
G01 X278.184 Y191.673
G01 X275.673 Y192.053
G01 X273.245 Y192.798
G01 X270.914 Y193.908
G01 X268.689 Y195.379
G01 X266.581 Y197.203
G01 X264.595 Y199.371
G01 X262.737 Y201.870
G01 X261.012 Y204.685
G01 X259.420 Y207.798
G01 X257.961 Y211.188
G01 X256.635 Y214.834
G01 X255.436 Y218.711
G01 X254.361 Y222.794
G01 X253.401 Y227.054
G01 X252.548 Y231.464
G01 X251.793 Y235.994
G01 X251.125 Y240.614
G01 X250.532 Y245.293
G01 X250.000 Y250.000
G01 X249.516 Y254.705
G01 X249.066 Y259.376
G01 X248.634 Y263.986
G01 X248.207 Y268.504
G01 X247.769 Y272.903
G01 X247.306 Y277.157
G01 X246.803 Y281.240
G01 X246.247 Y285.131
G01 X245.626 Y288.807
G01 X244.926 Y292.250
G01 X244.138 Y295.442
G01 X243.252 Y298.370
G01 X242.260 Y301.020
G01 X241.156 Y303.384
G01 X239.935 Y305.453
G01 X238.594 Y307.223
G01 X237.131 Y308.691
G01 X235.548 Y309.858
G01 X233.848 Y310.725
G01 X232.034 Y311.299
G01 X230.113 Y311.584
G01 X228.095 Y311.591
G01 X225.988 Y311.330
G01 X223.806 Y310.814
G01 X221.561 Y310.058
G01 X219.269 Y309.076
G01 X216.947 Y307.885
G01 X214.613 Y306.504
G01 X212.286 Y304.951
G01 X209.985 Y303.246
G01 X207.731 Y301.409
G01 X205.546 Y299.458
G01 X203.451 Y297.414
G01 X201.467 Y295.298
G01 X199.617 Y293.127
G01 X197.920 Y290.921
G01 X196.398 Y288.697
G01 X195.069 Y286.473
G01 X193.954 Y284.263
G01 X193.067 Y282.083
G01 X192.427 Y279.946
G01 X192.046 Y277.864
G01 X191.938 Y275.846
G01 X192.112 Y273.902
G01 X192.576 Y272.037
G01 X193.337 Y270.259
G01 X194.398 Y268.569
G01 X195.760 Y266.970
G01 X197.422 Y265.462
G01 X199.379 Y264.045
G01 X201.627 Y262.714
G01 X204.154 Y261.466
G01 X206.951 Y260.296
G01 X210.002 Y259.196
G01 X213.293 Y258.159
G01 X216.804 Y257.176
G01 X220.514 Y256.236
G01 X224.402 Y255.331
G01 X228.443 Y254.450
G01 X232.611 Y253.580
G01 X236.880 Y252.711
G01 X241.220 Y251.833
G01 X245.604 Y250.932
G01 X250.000 Y250.000
G01 X254.380 Y249.025
G01 X258.712 Y247.999
G01 X262.967 Y246.912
G01 X267.115 Y245.756
G01 X271.128 Y244.524
G01 X274.977 Y243.211
G01 X278.636 Y241.812
G01 X282.080 Y240.324
G01 X285.284 Y238.745
G01 X288.227 Y237.074
G01 X290.890 Y235.312
G01 X293.256 Y233.462
G01 X295.309 Y231.528
G01 X297.037 Y229.514
G01 X298.431 Y227.427
G01 X299.485 Y225.276
G01 X300.193 Y223.069
G01 X300.555 Y220.817
G01 X300.574 Y218.532
G01 X300.253 Y216.226
G01 X299.601 Y213.912
G01 X298.627 Y211.605
G01 X297.346 Y209.319
G01 X295.771 Y207.070
G01 X293.923 Y204.873
G01 X291.819 Y202.744
G01 X289.484 Y200.699
G01 X286.941 Y198.754
G01 X284.216 Y196.923
G01 X281.335 Y195.223
G01 X278.327 Y193.667
G01 X275.222 Y192.269
G01 X272.048 Y191.043
G01 X268.836 Y189.999
G01 X265.615 Y189.150
G01 X262.415 Y188.505
G01 X259.265 Y188.072
G01 X256.194 Y187.859
G01 X253.229 Y187.871
G01 X250.394 Y188.113
G01 X247.716 Y188.588
G01 X245.216 Y189.297
G01 X242.914 Y190.239
G01 X240.830 Y191.414
G01 X238.978 Y192.817
G01 X237.373 Y194.445
G01 X236.025 Y196.291
G01 X234.943 Y198.348
G01 X234.131 Y200.607
G01 X233.593 Y203.058
G01 X233.328 Y205.691
G01 X233.333 Y208.492
G01 X233.603 Y211.450
G01 X234.129 Y214.549
G01 X234.900 Y217.777
G01 X235.903 Y221.117
G01 X237.122 Y224.554
G01 X238.540 Y228.073
G01 X240.136 Y231.657
G01 X241.889 Y235.291
G01 X243.777 Y238.958
G01 X245.775 Y242.642
G01 X247.858 Y246.328
G01 X250.000 Y250.000
G01 X252.175 Y253.644
G01 X254.356 Y257.246
G01 X256.517 Y260.793
G01 X258.631 Y264.270
G01 X260.673 Y267.668
G01 X262.620 Y270.974
G01 X264.446 Y274.178
G01 X266.130 Y277.271
G01 X267.651 Y280.244
G01 X268.991 Y283.091
G01 X270.134 Y285.805
G01 X271.063 Y288.381
G01 X271.768 Y290.813
G01 X272.239 Y293.099
G01 X272.468 Y295.236
G01 X272.450 Y297.222
G01 X272.183 Y299.055
G01 X271.669 Y300.736
G01 X270.910 Y302.265
G01 X269.912 Y303.643
G01 X268.684 Y304.871
G01 X267.236 Y305.951
G01 X265.582 Y306.886
G01 X263.738 Y307.678
G01 X261.720 Y308.330
G01 X259.549 Y308.846
G01 X257.244 Y309.228
G01 X254.830 Y309.480
G01 X252.329 Y309.605
G01 X249.766 Y309.606
G01 X247.166 Y309.487
G01 X244.556 Y309.250
G01 X241.961 Y308.899
G01 X239.407 Y308.436
G01 X236.921 Y307.862
G01 X234.526 Y307.182
G01 X232.247 Y306.395
G01 X230.108 Y305.505
G01 X228.129 Y304.512
G01 X226.332 Y303.417
G01 X224.733 Y302.222
G01 X223.351 Y300.928
G01 X222.198 Y299.535
G01 X221.286 Y298.044
G01 X220.626 Y296.456
G01 X220.224 Y294.770
G01 X220.085 Y292.989
G01 X220.210 Y291.112
G01 X220.599 Y289.141
G01 X221.247 Y287.077
G01 X222.148 Y284.921
G01 X223.295 Y282.676
G01 X224.675 Y280.342
G01 X226.275 Y277.924
G01 X228.080 Y275.423
G01 X230.070 Y272.844
G01 X232.226 Y270.191
G01 X234.527 Y267.467
G01 X236.950 Y264.680
G01 X239.469 Y261.833
G01 X242.061 Y258.935
G01 X244.697 Y255.991
G01 X247.353 Y253.010
G01 X250.000 Y250.000
G01 X252.612 Y246.969
G01 X255.162 Y243.927
G01 X257.624 Y240.883
G01 X259.973 Y237.847
G01 X262.184 Y234.830
G01 X264.234 Y231.843
G01 X266.102 Y228.896
G01 X267.768 Y226.002
G01 X269.214 Y223.169
G01 X270.425 Y220.411
G01 X271.387 Y217.738
G01 X272.090 Y215.161
G01 X272.524 Y212.690
G01 X272.684 Y210.336
G01 X272.566 Y208.109
G01 X272.171 Y206.017
G01 X271.500 Y204.069
G01 X270.559 Y202.274
G01 X269.354 Y200.638
G01 X267.896 Y199.169
G01 X266.199 Y197.870
G01 X264.275 Y196.747
G01 X262.144 Y195.804
G01 X259.824 Y195.042
G01 X257.336 Y194.464
G01 X254.704 Y194.070
G01 X251.951 Y193.859
G01 X249.104 Y193.829
G01 X246.188 Y193.978
G01 X243.232 Y194.303
G01 X240.262 Y194.798
G01 X237.308 Y195.457
G01 X234.396 Y196.275
G01 X231.554 Y197.244
G01 X228.811 Y198.355
G01 X226.191 Y199.600
G01 X223.720 Y200.969
G01 X221.423 Y202.453
G01 X219.320 Y204.042
G01 X217.434 Y205.723
G01 X215.783 Y207.487
G01 X214.382 Y209.323
G01 X213.248 Y211.220
G01 X212.392 Y213.166
G01 X211.823 Y215.151
G01 X211.548 Y217.165
G01 X211.573 Y219.197
G01 X211.898 Y221.238
G01 X212.522 Y223.278
G01 X213.443 Y225.310
G01 X214.654 Y227.325
G01 X216.147 Y229.317
G01 X217.910 Y231.279
G01 X219.930 Y233.207
G01 X222.192 Y235.094
G01 X224.678 Y236.939
G01 X227.368 Y238.737
G01 X230.242 Y240.488
G01 X233.276 Y242.191
G01 X236.448 Y243.845
G01 X239.732 Y245.451
G01 X243.103 Y247.010
G01 X246.535 Y248.526
G01 X250.000 Y250.000
G01 X253.473 Y251.437
G01 X256.927 Y252.840
G01 X260.337 Y254.214
G01 X263.677 Y255.563
G01 X266.922 Y256.893
G01 X270.050 Y258.209
G01 X273.038 Y259.515
G01 X275.865 Y260.818
G01 X278.514 Y262.122
G01 X280.967 Y263.431
G01 X283.208 Y264.751
G01 X285.225 Y266.084
G01 X287.006 Y267.434
G01 X288.543 Y268.804
G01 X289.830 Y270.196
G01 X290.861 Y271.610
G01 X291.636 Y273.048
G01 X292.155 Y274.508
G01 X292.419 Y275.990
G01 X292.435 Y277.490
G01 X292.208 Y279.005
G01 X291.748 Y280.531
G01 X291.065 Y282.062
G01 X290.172 Y283.593
G01 X289.083 Y285.115
G01 X287.813 Y286.622
G01 X286.379 Y288.104
G01 X284.798 Y289.551
G01 X283.090 Y290.954
G01 X281.273 Y292.302
G01 X279.367 Y293.584
G01 X277.392 Y294.788
G01 X275.368 Y295.902
G01 X273.314 Y296.914
G01 X271.251 Y297.814
G01 X269.196 Y298.589
G01 X267.168 Y299.228
G01 X265.185 Y299.719
G01 X263.261 Y300.054
G01 X261.412 Y300.221
G01 X259.652 Y300.212
G01 X257.992 Y300.020
G01 X256.443 Y299.636
G01 X255.014 Y299.057
G01 X253.711 Y298.276
G01 X252.539 Y297.292
G01 X251.503 Y296.101
G01 X250.603 Y294.704
G01 X249.840 Y293.103
G01 X249.212 Y291.300
G01 X248.714 Y289.298
G01 X248.342 Y287.105
G01 X248.089 Y284.728
G01 X247.946 Y282.176
G01 X247.904 Y279.459
G01 X247.953 Y276.590
G01 X248.079 Y273.582
G01 X248.270 Y270.449
G01 X248.514 Y267.208
G01 X248.794 Y263.876
G01 X249.098 Y260.469
G01 X249.410 Y257.008
G01 X249.716 Y253.512
G01 X250.000 Y250.000
G01 X250.249 Y246.493
G01 X250.447 Y243.012
